!!!!SEGMENT: pl-stab--26a--003_nowakiewicz-kazimierz--missa-in-d-credo.krn
!!!cenid: 18xx:3513
!!!COM: Nowakiewicz, Kazimierz
!!!COM-rismid: pe30020309
!!!CDT: <1800->1824
!!!CNT: Polish
!!!OPR: Missa in D
!!!OTL: Credo
!!!OMV: 003
!!!PDT: 1810
!!!AGN:
!!!SMS-siglum: PL-STAb
!!!SMS-shelfmark: 26a
!!!SMS-shelfwork: M
!!!SMS-variant:
!!!SMS-altvar:
!!!NIFC-rismid: 301050704
!!!URL-scan: https://repozytorium.nifc.pl/islandora/object/pl-stab%3A3636/datastream/PDF/view
!!!ONB-nifc: UWAGA: części Mszy: 1. Kyrie, 2. Gloria, 3. Credo, 4. Et incarnatus, 5. Et resurrexit, 6. Sanctus, 7. Benedictus, 8. Osanna, 9. Agnus Dei, 10. Dona nobis
!!!key: D
**kern	**dynam	**kern	**kern	**dynam	**kern	**kern	**text	**kern	**text	**kern	**text	**dynam	**kern	**text	**dynam	**kern	**dynam	**kern	**dynam	**kern	**dynam	**kern	**dynam
*	*	*group4	*group4	*	*group4	*group3	*	*group3	*	*group3	*	*	*group3	*	*	*group2	*	*group2	*	*group1	*	*group1	*
*part12	*part12	*part11	*part10	*part10	*part9	*part8	*part8	*part7	*part7	*part6	*part6	*part6	*part5	*part5	*part5	*part4	*part4	*part3	*part3	*part2	*part2	*part1	*part1
*staff12	*	*staff11	*staff10	*	*staff9	*staff8	*staff8	*staff7	*staff7	*staff6	*staff6	*	*staff5	*staff5	*	*staff4	*	*staff3	*	*staff2	*	*staff1	*
*I"Organo.	*	*I"Alto Viola	*I"Violino SecuNdo 1mo	*	*I"[Violino 1]	*I"Baſso	*	*I"Tenor	*	*I"Alto	*	*	*I"Canto	*	*	*I"Clarino Secundo et Cornu	*	*I"Clarino Primo et Cornu	*	*I"Oboe Secundo	*	*I"Oboe Primo	*
*I'org	*	*I'vla	*I'vl 2	*	*I'[vl 1]	*I'B	*	*I'T	*	*I'A	*	*	*I'S	*	*	*I'clno 2 et cor	*	*I'clno 1 et cor	*	*I'ob	*	*I'ob	*
*Iorgan	*	*Iviola	*Ivioln	*	*Ivioln	*Ibass	*	*Itenor	*	*Ialto	*	*	*Isoprn	*	*	*Icor	*	*Icor	*	*Ioboe	*	*Ioboe	*
*ICklav	*	*ICstr	*ICstr	*	*ICstr	*ICvox	*	*ICvox	*	*ICvox	*	*	*ICvox	*	*	*ICbras	*	*ICbras	*	*ICww	*	*ICww	*
*IGacmp	*	*IGacmp	*IGacmp	*	*IGacmp	*	*	*	*	*	*	*	*	*	*	*IGacmp	*	*IGacmp	*	*IGacmp	*	*IGacmp	*
*clefF4	*	*clefC3	*clefG2	*	*	*clefF4	*	*clefC4	*	*clefC3	*	*	*clefC1	*	*	*clefG2	*	*clefG2	*	*clefG2	*	*clefG2	*
*	*	*	*	*	*	*	*	*	*	*	*	*	*	*	*	*ITrd6c10	*	*ITrd6c10	*	*	*	*	*
*k[f#c#]	*	*k[f#c#]	*k[c#f#]	*	*	*k[c#f#]	*	*k[f#c#]	*	*k[c#f#]	*	*	*k[f#c#]	*	*	*k[f#c#]	*	*k[f#c#]	*	*k[f#c#]	*	*k[f#c#]	*
*D:	*	*D:	*D:	*	*	*D:	*	*D:	*	*D:	*	*	*D:	*	*	*D:	*	*D:	*	*D:	*	*D:	*
*M4/4	*	*	*M4/4	*	*	*M4/4	*	*M4/4	*	*M4/4	*	*	*M4/4	*	*	*M4/4	*	*M4/4	*	*M4/4	*	*M4/4	*
*met(C.)	*	*	*met(C.)	*	*	*met(C.)	*	*met(C.)	*	*met(c)	*	*	*met(C.)	*	*	*met(C.)	*	*met(C.)	*	*met(C.)	*	*met(C.)	*
=1	=1	=1	=1	=1	=1	=1	=1	=1	=1	=1	=1	=1	=1	=1	=1	=1	=1	=1	=1	=1	=1	=1	=1
!	!	!LO:TX:t=P:problem:brak oznaczenia metrycznego	!	!	!	!	!	!	!	!	!	!	!LO:TX:t=P:problem:kolejność znaków f# cc# 	!	!	!LO:TX:a:t=in D.	!	!LO:TX:a:t=in D.	!	!	!	!	!
!LO:TX:a:B:t=allo	!LO:DY:t=ff.	!LO:TX:a:B:t=allo	!LO:TX:a:B:t=Allo	!	!LO:TX:t=P:problem:zgodnie z RISM "Partia vl 1 zaginęła"	!LO:TX:a:B:t=allo	!	!LO:TX:a:B:t=allo	!	!LO:TX:a:B:t=allo	!	!	!LO:TX:a:B:t=allo	!	!LO:DY:a:t=for	!LO:TX:a:B:t=allo	!	!LO:TX:a:B:t=allo	!LO:DY:t=for	!LO:TX:a:B:t=allo	!	!LO:TX:a:B:t=allo	!
8D\L	ff	8D/L	8d/L	ff	1ryy	4D\	Cre-	4A\	Cre-	4f#\	Cre-	.	4dd\	Cre-	f	4F#/	f	4d\	f	4ff#\	f	4ddd\	.
(16E\L	.	16E/L	(16e/L	.	.	.	.	.	.	.	.	.	.	.	.	.	.	.	.	.	.	.	.
16F#\JJ	.	16F#/JJ	16f#/JJ	.	.	.	.	.	.	.	.	.	.	.	.	.	.	.	.	.	.	.	.
16G\LL	.	16G/LL	16g/LL	.	.	8D\	-do	8A\	-do	8f#\	-do	.	8dd\L	-do	.	4r	.	4r	.	4r	.	4r	.
16A\	.	16A/	16a/	.	.	.	.	.	.	.	.	.	.	.	.	.	.	.	.	.	.	.	.
16B\	.	16B/	16b/	.	.	8F#\	in	8A\	in	8f#\	in	.	8dd\J	in	.	.	.	.	.	.	.	.	.
16c#\JJ)	.	16c#/JJ	16cc#/JJ)	.	.	.	.	.	.	.	.	.	.	.	.	.	.	.	.	.	.	.	.
8d|\L	.	8d/L	8dd/L	.	.	4A\	u-	4A\	u-	4f#\	u-	.	4dd\	u-	.	8D/L	.	8d/L	.	8r	.	8r	.
8A|\	.	8A/	8a/	.	.	.	.	.	.	.	.	.	.	.	.	8F#/	.	8A/	.	8a/L	.	(8aa\L	.
8F#|\	.	8F#/	8f#/	.	.	4A\	-num	4A\	-num	4f#\	-num	.	4dd\	-nu(m)	.	8A/	.	8F#/	.	8f#/	.	8ff#\	.
8D|\J	.	8D/J	8d/J	.	.	.	.	.	.	.	.	.	.	.	.	8d/J	.	8D/J	.	8d/J	.	8dd\J)	.
=2	=2	=2	=2	=2	=2	=2	=2	=2	=2	=2	=2	=2	=2	=2	=2	=2	=2	=2	=2	=2	=2	=2	=2
8d|\L	.	8d/L	8dd/L	.	1ryy	4d\	De-	4d\	De-	4a\	De-	.	4ff#\	De-	.	8D/L	.	8d/L	.	8r	.	8r	.
8A|\	.	8A/	8a/	.	.	.	.	.	.	.	.	.	.	.	.	8F#/	.	8A/	.	8a/L	.	8aa\L	.
8F#|\	.	8F#/	8f#/	.	.	4D/	-um	4A\	-um	4f#\	-um	.	4dd\	-um	.	8A/	.	8F#/	.	8f#/	.	8ff#\	.
8D|\J	.	8D/J	8d/J	.	.	.	.	.	.	.	.	.	.	.	.	8d/J	.	8D/J	.	8d/J	.	8dd\J	.
(16D\LL	.	8F#/L	8A/L	.	.	2r	.	2r	.	2r	.	.	2r	.	.	4F#/	.	4d\	.	2r	.	2r	.
16E\	.	.	.	.	.	.	.	.	.	.	.	.	.	.	.	.	.	.	.	.	.	.	.
16F#\	.	8A/	8d/	.	.	.	.	.	.	.	.	.	.	.	.	.	.	.	.	.	.	.	.
16G\JJ	.	.	.	.	.	.	.	.	.	.	.	.	.	.	.	.	.	.	.	.	.	.	.
16A\LL	.	8d/	8f#/	.	.	.	.	.	.	.	.	.	.	.	.	4r	.	4r	.	.	.	.	.
16B\	.	.	.	.	.	.	.	.	.	.	.	.	.	.	.	.	.	.	.	.	.	.	.
16c#\	.	8f#/J	8d/J	.	.	.	.	.	.	.	.	.	.	.	.	.	.	.	.	.	.	.	.
16d\JJ)	.	.	.	.	.	.	.	.	.	.	.	.	.	.	.	.	.	.	.	.	.	.	.
=3	=3	=3	=3	=3	=3	=3	=3	=3	=3	=3	=3	=3	=3	=3	=3	=3	=3	=3	=3	=3	=3	=3	=3
*	*	*	*	*	*	*	*ij	*	*ij	*	*ij	*	*	*ij	*	*	*	*	*	*	*	*	*
!	!	!LO:TX:t=P:problem:mixed beam	!	!	!	!	!	!	!	!	!	!	!	!	!	!	!	!	!	!	!	!	!
4A\	.	16a\LL	16a/LL	.	1ryy	4A\	Cre-	4c#\	Cre-	4a\	Cre-	.	4ee\	Cre-	.	4A/	.	4e\	.	4cc#\	.	4aa\	.
.	.	16A/	16A/	.	.	.	.	.	.	.	.	.	.	.	.	.	.	.	.	.	.	.	.
.	.	16B/	16B/	.	.	.	.	.	.	.	.	.	.	.	.	.	.	.	.	.	.	.	.
.	.	16c#X/JJ	16c#/JJ	.	.	.	.	.	.	.	.	.	.	.	.	.	.	.	.	.	.	.	.
16r	.	16d\LL	16d/LL	.	.	8A\	-do	8c#\	-do	8a\	-do	.	8ee\	-do	.	4r	.	4r	.	4r	.	4r	.
(16E\LL	.	16e\	16e/	.	.	.	.	.	.	.	.	.	.	.	.	.	.	.	.	.	.	.	.
16F#\	.	16f#\	16f#/	.	.	8A\	in	8c#\	in	8a\	in	.	8ee\	in	.	.	.	.	.	.	.	.	.
16G#X\JJ)	.	16g#X\JJ	16g#X/JJ	.	.	.	.	.	.	.	.	.	.	.	.	.	.	.	.	.	.	.	.
!	!	!	!	!	!	!	!	!	!	!	!	!	!	!	!	!	!	!LO:LB:g=original	!	!	!	!	!
8A|\L	.	8a\L	8a/L	.	.	4A\	u-	4c#\	u-	4a\	u-	.	4ee\	u-	.	4A/	.	4e\	.	8r	.	8r	.
8E|\	.	8e\	8e/	.	.	.	.	.	.	.	.	.	.	.	.	.	.	.	.	8ee\L	.	(8eee\L	.
8C#|\	.	8c#\	8c#/	.	.	4A\	-num	4c#\	-num	4a\	-num	.	4ee\	-nu(m)	.	4r	.	4r	.	8cc#\	.	8ccc#\	.
8AA|\J	.	8A\J	8A/J	.	.	.	.	.	.	.	.	.	.	.	.	.	.	.	.	8a\J	.	8aa\J)	.
=4	=4	=4	=4	=4	=4	=4	=4	=4	=4	=4	=4	=4	=4	=4	=4	=4	=4	=4	=4	=4	=4	=4	=4
8A\L	.	8a\L	8a/L	.	1ryy	4c#\	De-	4c#\	De-	4a\	De-	.	4aa\	De-	.	4A/	.	4e\	.	8r	.	8r	.
8E\	.	8e\	8e/	.	.	.	.	.	.	.	.	.	.	.	.	.	.	.	.	8ee\L	.	(8eee\L	.
8C#\	.	8c#\	8c#/	.	.	4A\	-um	4c#\	-um	4a\	-um	.	4ee\	-um	.	4r	.	4r	.	8cc#\	.	8ccc#\	.
*	*	*	*	*	*	*	*Xij	*	*Xij	*	*Xij	*	*	*Xij	*	*	*	*	*	*	*	*	*
8AA\J	.	8A\J	8A/J	.	.	.	.	.	.	.	.	.	.	.	.	.	.	.	.	8a\J	.	8aa\J)	.
!	!	!	!LO:LB:g=original	!	!	!	!	!	!	!	!	!	!	!	!	!	!	!	!	!	!	!	!
(16AA/LL	.	8a\L	8c#/L	.	.	2r	.	2r	.	2r	.	.	2r	.	.	4A/	.	4e\	.	2r	.	2r	.
16BB/	.	.	.	.	.	.	.	.	.	.	.	.	.	.	.	.	.	.	.	.	.	.	.
16C#/	.	8e\	8e/	.	.	.	.	.	.	.	.	.	.	.	.	.	.	.	.	.	.	.	.
16D/JJ	.	.	.	.	.	.	.	.	.	.	.	.	.	.	.	.	.	.	.	.	.	.	.
16E\LL	.	8c#\	8a/	.	.	.	.	.	.	.	.	.	.	.	.	4r	.	4r	.	.	.	.	.
16F#\	.	.	.	.	.	.	.	.	.	.	.	.	.	.	.	.	.	.	.	.	.	.	.
16G\	.	8A\J	8cc#/J	.	.	.	.	.	.	.	.	.	.	.	.	.	.	.	.	.	.	.	.
16A\JJ)	.	.	.	.	.	.	.	.	.	.	.	.	.	.	.	.	.	.	.	.	.	.	.
!LO:LB:g=original	!	!	!	!	!	!	!	!LO:LB:g=original	!	!	!	!	!	!	!	!	!	!	!	!	!	!	!
=5	=5	=5	=5	=5	=5	=5	=5	=5	=5	=5	=5	=5	=5	=5	=5	=5	=5	=5	=5	=5	=5	=5	=5
!	!	!	!LO:TX:t=P:problem:mixed beam	!	!	!	!	!	!	!	!	!	!	!	!	!	!	!	!	!	!	!	!
4D\	.	16d/LL	16dd\LL	.	1ryy	4d\	Pa-	4d\	Pa-	4a\	Pa-	.	4ff#\	Pa-	.	4F#/	.	4d\	.	4ff#\	.	4ddd\	.
.	.	16D/	16d/	.	.	.	.	.	.	.	.	.	.	.	.	.	.	.	.	.	.	.	.
.	.	16E/	16e/	.	.	.	.	.	.	.	.	.	.	.	.	.	.	.	.	.	.	.	.
.	.	16F#/JJ	16f#/JJ	.	.	.	.	.	.	.	.	.	.	.	.	.	.	.	.	.	.	.	.
16r	.	16G/LL	16g/LL	.	.	8D\L	-trem	8d\	-tre(m)	8a\	-trem	.	8ff#\	-trem	.	4r	.	4r	.	4r	.	4r	.
(16A\LL	.	16G/	16a/	.	.	.	.	.	.	.	.	.	.	.	.	.	.	.	.	.	.	.	.
16B\	.	16A/	16b/	.	.	8F#\J	o-	8d\	o-	8a\	o-	.	8ff#\	o-	.	.	.	.	.	.	.	.	.
16c#\JJ)	.	16B/JJ	16cc#/JJ	.	.	.	.	.	.	.	.	.	.	.	.	.	.	.	.	.	.	.	.
!	!	!LO:LB:g=original	!	!	!	!	!	!	!	!	!	!	!	!	!	!	!	!	!	!	!	!	!
8d|\L	.	8d/L	8dd/L	.	.	4.A\	-mni-	4d\	-mni-	4a\	-mni-	.	4ff#\	-mni-	.	8D/L	.	8d/L	.	8r	.	8r	.
8A|\	.	8A/	8a/	.	.	.	.	.	.	.	.	.	.	.	.	8F#/	.	8A/	.	8a/L	.	8aa\L	.
8F#|\	.	8F#/	8f#/	.	.	.	.	4d\	-po-	4a\	-po-	.	4ff#\	-po-	.	8A/	.	8F#/	.	8f#/	.	8ff#\	.
8D|\J	.	8D/J	8d/J	.	.	8c#\	-po-	.	.	.	.	.	.	.	.	8d/J	.	8D/J	.	8d/J	.	8dd\J	.
!	!	!	!	!	!	!LO:LB:g=original	!	!	!	!	!	!	!	!	!	!	!	!	!	!	!	!	!
=6	=6	=6	=6	=6	=6	=6	=6	=6	=6	=6	=6	=6	=6	=6	=6	=6	=6	=6	=6	=6	=6	=6	=6
8F#\L	.	8F#/L	8f#/L	.	1ryy	4d\	-ten-	4d\	-ten-	4f#\	-ten-	.	4aa\	-ten-	.	4F#/	.	4d\	.	2r	.	2r	.
8A\	.	8A/	8a/	.	.	.	.	.	.	.	.	.	.	.	.	.	.	.	.	.	.	.	.
8d\	.	8d/	8dd/	.	.	4D\	-tem	4d\	-te(m)	4a\	-te(m)	.	4ff#\	-tem	.	4r	.	4r	.	.	.	.	.
8A\J	.	8A/J	8a/J	.	.	.	.	.	.	.	.	.	.	.	.	.	.	.	.	.	.	.	.
8F#\L	.	8F#/L	8f#/L	.	.	2r	.	2r	.	2r	.	.	2r	.	.	4F#/	.	4d\	.	8r	.	8r	.
8D\	.	8D/	8d/	.	.	.	.	.	.	.	.	.	.	.	.	.	.	.	.	8d/L	.	8dd\L	.
8F#\	.	8F#/	8f#/	.	.	.	.	.	.	.	.	.	.	.	.	4r	.	4r	.	8f#/	.	8ff#\	.
8A\J	.	8A/J	8a/J	.	.	.	.	.	.	.	.	.	.	.	.	.	.	.	.	8a/J	.	8aa\J	.
!	!	!	!	!	!	!	!	!	!	!	!	!	!LO:LB:g=original	!	!	!	!	!	!	!LO:LB:g=original	!	!	!
=7	=7	=7	=7	=7	=7	=7	=7	=7	=7	=7	=7	=7	=7	=7	=7	=7	=7	=7	=7	=7	=7	=7	=7
8d\L	.	8d/L	8dd\L	.	1ryy	4D\	fa-	4d\	fa-	4a\	fa-	.	4ff#\	fa-	.	8D/L	.	8d/L	.	8dd\L	.	8ddd\L	.
8A\	.	8A/	8a\	.	.	.	.	.	.	.	.	.	.	.	.	8F#/	.	8A/	.	8a\J	.	8aa\J	.
8F#\	.	8F#/	8f#\	.	.	8D\	-cto-	8d\	-cto-	8a\	-cto-	.	8ff#\	-cto-	.	8A/	.	8F#/	.	8f#/L	.	8ff#\L	.
8D\J	.	8D/J	8d\J	.	.	8F#\	-rem	8d\	-re(m)	8a\	-rem	.	8ff#\	-rem	.	8D/J	.	8D/J	.	8d/J	.	8dd\J	.
!	!	!	!	!	!	!	!	!	!	!	!	!	!	!	!	!	!	!	!	!	!	!LO:LB:g=original	!
16r	.	16rA	16c#/LL	.	.	4A\	cae-	4A\	ce-	4cc#\	cae-	.	4ee\	cae-	.	2r	.	2r	.	8r	.	4r	.
(16D\LL	.	16D/LL	16d/	.	.	.	.	.	.	.	.	.	.	.	.	.	.	.	.	.	.	.	.
16E\	.	16E/	16e/	.	.	.	.	.	.	.	.	.	.	.	.	.	.	.	.	8r	.	.	.
16F#\JJ	.	16F#/JJ	16f#/JJ	.	.	.	.	.	.	.	.	.	.	.	.	.	.	.	.	.	.	.	.
16G\LL	.	16G/LL	16g/LL	.	.	8AA/	-li	8c#\	-li	8a\	-li	.	8gg\	-li	.	.	.	.	.	8.r	.	8.r	.
16A\	.	16A/	16a/	.	.	.	.	.	.	.	.	.	.	.	.	.	.	.	.	.	.	.	.
16B\	.	16B/	16b/	.	.	8AA/	et	8c#\	et	8a\	et	.	8gg\	et	.	.	.	.	.	.	.	.	.
16c#\JJ)	.	16c#/JJ	16cc#/JJ	.	.	.	.	.	.	.	.	.	.	.	.	.	.	.	.	16gg\	.	16ccc#\	.
!	!	!	!	!	!	!	!	!	!	!LO:LB:g=original	!	!	!	!	!	!LO:LB:g=original	!	!	!	!	!	!	!
=8	=8	=8	=8	=8	=8	=8	=8	=8	=8	=8	=8	=8	=8	=8	=8	=8	=8	=8	=8	=8	=8	=8	=8
*	*	*2\right	*	*	*	*	*	*	*	*	*	*	*	*	*	*	*	*	*	*	*	*	*
*	*	*tremolo	*tremolo	*	*	*	*	*	*	*	*	*	*	*	*	*	*	*	*	*	*	*	*
!	!	!LO:TX:t=P:problem:mixed beam	!	!	!	!	!	!	!	!	!	!	!	!	!	!	!	!	!	!	!	!	!
!	!	!LO:N:TREM:vis=2.	!	!	!	!	!	!	!	!	!	!	!	!	!	!	!	!	!	!	!	!	!
4d\	.	8d\L	16ddLL 16f#/	.	1ryy	4D\	ter-	4d\	ter-	4a\	ter-	.	4ff#\	ter-	.	4.F#/	.	4.d\	.	4ff#\	.	4ddd\	.
.	.	.	16dd 16f#/	.	.	.	.	.	.	.	.	.	.	.	.	.	.	.	.	.	.	.	.
.	.	8D/	16dd 16f#/	.	.	.	.	.	.	.	.	.	.	.	.	.	.	.	.	.	.	.	.
.	.	.	16dd 16f#/	.	.	.	.	.	.	.	.	.	.	.	.	.	.	.	.	.	.	.	.
8r	.	8d\	16dd 16f#/	.	.	4D\	-re	4d\	-re	4a\	-rae	.	4ff#\	-re	.	.	.	.	.	4r	.	4r	.
.	.	.	16dd 16f#/	.	.	.	.	.	.	.	.	.	.	.	.	.	.	.	.	.	.	.	.
8D\	.	8D/J	16dd 16f#/	.	.	.	.	.	.	.	.	.	.	.	.	8F#/	.	8d\	.	.	.	.	.
.	.	.	16ddJJ 16f#/	.	.	.	.	.	.	.	.	.	.	.	.	.	.	.	.	.	.	.	.
*2\right	*	*	*	*	*	*	*	*	*	*	*	*	*	*	*	*	*	*2\right	*	*	*	*	*
*tremolo	*	*rep	*	*	*	*	*	*	*	*	*	*	*	*	*	*tremolo	*	*tremolo	*	*	*	*	*
!LO:TX:t=P:problem:mixed beam	!	!LO:TX:t=P:problem:mixed beam	!	!	!	!	!	!	!	!	!	!	!	!	!	!	!	!	!	!	!	!	!
!	!	!LO:N:TREM:vis=2.	!	!	!	!	!	!	!	!	!	!	!	!	!	!	!	!	!	!	!	!	!
8d\L	.	8d\L	16ddLL 16f#/	.	.	2r	.	2r	.	2r	.	.	2r	.	.	8F#/L	.	8d\L	.	4ff#\	.	4ddd\	.
.	.	.	16dd 16f#/	.	.	.	.	.	.	.	.	.	.	.	.	.	.	.	.	.	.	.	.
8D/	.	8D/	16dd 16f#/	.	.	.	.	.	.	.	.	.	.	.	.	8F#/	.	8d\	.	.	.	.	.
.	.	.	16dd 16f#/	.	.	.	.	.	.	.	.	.	.	.	.	.	.	.	.	.	.	.	.
8d\	.	8d\	16dd 16f#/	.	.	.	.	.	.	.	.	.	.	.	.	8F#/	.	8d\	.	4r	.	4r	.
.	.	.	16dd 16f#/	.	.	.	.	.	.	.	.	.	.	.	.	.	.	.	.	.	.	.	.
8D/J	.	8D/J	16dd 16f#/	.	.	.	.	.	.	.	.	.	.	.	.	8F#/J	.	8d\J	.	.	.	.	.
.	.	.	16ddJJ 16f#/	.	.	.	.	.	.	.	.	.	.	.	.	.	.	.	.	.	.	.	.
*Xtremolo	*	*Xrep	*	*	*	*	*	*	*	*	*	*	*	*	*	*	*	*	*	*	*	*	*
*	*	*Xtremolo	*	*	*	*	*	*	*	*	*	*	*	*	*	*Xtremolo	*	*Xtremolo	*	*	*	*	*
=9	=9	=9	=9	=9	=9	=9	=9	=9	=9	=9	=9	=9	=9	=9	=9	=9	=9	=9	=9	=9	=9	=9	=9
8c#\L	.	8C#/L	16gLL 16A/	.	1ryy	4A\	vi-	4e\	vi-	4cc#\	vi-	.	4gg\	vi-	.	8A/L	.	8e\L	.	4gg\	.	4ccc#\	.
.	.	.	16g 16A/	.	.	.	.	.	.	.	.	.	.	.	.	.	.	.	.	.	.	.	.
8B\J	.	8E/	16g 16A/	.	.	.	.	.	.	.	.	.	.	.	.	16A/L	.	16e\L	.	.	.	.	.
.	.	.	16g 16A/	.	.	.	.	.	.	.	.	.	.	.	.	16A/JJ	.	16e\JJ	.	.	.	.	.
*tremolo	*	*	*	*	*	*	*	*	*	*	*	*	*	*	*	*	*	*	*	*	*	*	*
8AA/L	.	8A/	16g 16A/	.	.	4A\	-si-	4e\	-si-	4cc#\	-si-	.	4gg\	-si-	.	8A/L	.	8e\L	.	4aa\	.	4eee\	.
.	.	.	16g 16A/	.	.	.	.	.	.	.	.	.	.	.	.	.	.	.	.	.	.	.	.
8AA/	.	8E/J	16g 16A/	.	.	.	.	.	.	.	.	.	.	.	.	8A/J	.	8e\J	.	.	.	.	.
.	.	.	16gJJ 16A/	.	.	.	.	.	.	.	.	.	.	.	.	.	.	.	.	.	.	.	.
*	*	*	*	*	*	*	*	*	*	*	*	*	*	*	*	*tremolo	*	*tremolo	*	*	*	*	*
8AA/	.	8A/L	16gLL 16A/	.	.	4A\	-bi-	4e\	-bi-	4cc#\	-bi-	.	4ee\	-bi-	.	8A/L	.	8e\L	.	4gg\	.	4ccc#\	.
.	.	.	16g 16A/	.	.	.	.	.	.	.	.	.	.	.	.	.	.	.	.	.	.	.	.
8AA/J	.	8E/	16g 16A/	.	.	.	.	.	.	.	.	.	.	.	.	8A/	.	8e\	.	.	.	.	.
*Xtremolo	*	*	*	*	*	*	*	*	*	*	*	*	*	*	*	*	*	*	*	*	*	*	*
.	.	.	16g 16A/	.	.	.	.	.	.	.	.	.	.	.	.	.	.	.	.	.	.	.	.
8C#/L	.	8c#/	16g 16A/	.	.	8A\	-li-	8e\	-li-	8cc#\	-li-	.	8gg\	-li-	.	8A/	.	8e\	.	4ee\	.	4aa\	.
.	.	.	16g 16A/	.	.	.	.	.	.	.	.	.	.	.	.	.	.	.	.	.	.	.	.
8AA/J	.	8E/J	16g 16A/	.	.	8A\	-um	8e\	-um	8cc#\	-um	.	8gg\	-um	.	8A/J	.	8e\J	.	.	.	.	.
.	.	.	16gJJ 16A/	.	.	.	.	.	.	.	.	.	.	.	.	.	.	.	.	.	.	.	.
*	*	*	*	*	*	*	*	*	*	*	*	*	*	*	*	*Xtremolo	*	*Xtremolo	*	*	*	*	*
=10	=10	=10	=10	=10	=10	=10	=10	=10	=10	=10	=10	=10	=10	=10	=10	=10	=10	=10	=10	=10	=10	=10	=10
*tremolo	*	*tremolo	*	*	*	*	*	*	*	*	*	*	*	*	*	*	*	*	*	*	*	*	*
8A\L	.	8C#/L	16gLL 16A/	.	1ryy	4.A\	O-	4.e\	O-	4.cc#\	O-	.	8ee\	O-	.	8A/L	.	8e\L	.	4cc#\	.	4eee\	.
.	.	.	16g 16A/	.	.	.	.	.	.	.	.	.	.	.	.	.	.	.	.	.	.	.	.
8A\	.	8E/	16g 16A/	.	.	.	.	.	.	.	.	.	8a\	.	.	16A/L	.	16e\L	.	.	.	.	.
.	.	.	16g 16A/	.	.	.	.	.	.	.	.	.	.	.	.	16A/JJ	.	16e\JJ	.	.	.	.	.
8A\	.	8C#/	16g 16A/	.	.	.	.	.	.	.	.	.	8cc#\	.	.	8A/L	.	8e\L	.	4gg\	.	4aa\	.
.	.	.	16g 16A/	.	.	.	.	.	.	.	.	.	.	.	.	.	.	.	.	.	.	.	.
8A\J	.	8E/J	16g 16A/	.	.	8A\	-mni-	8e\	-mni-	8cc#\	-mni-	.	8ee\	-mni-	.	8A/J	.	8e\J	.	.	.	.	.
.	.	.	16g 16A/	.	.	.	.	.	.	.	.	.	.	.	.	.	.	.	.	.	.	.	.
*Xtremolo	*	*Xtremolo	*	*	*	*	*	*	*	*	*	*	*	*	*	*tremolo	*	*tremolo	*	*	*	*	*
!LO:TX:t=P:problem:mixed beam	!	!	!	!	!	!	!	!	!	!	!	!	!	!	!	!	!	!	!	!	!	!	!
8c#\L	.	8A/L	16g 16A/	.	.	4A\	-um	4e\	-um	4cc#\	-um	.	4gg\	-um	.	8A/L	.	8e\L	.	4ee\	.	4ccc#\	.
.	.	.	16g 16A/	.	.	.	.	.	.	.	.	.	.	.	.	.	.	.	.	.	.	.	.
8A\	.	8E/	16g 16A/	.	.	.	.	.	.	.	.	.	.	.	.	8A/	.	8e\	.	.	.	.	.
.	.	.	16g 16A/	.	.	.	.	.	.	.	.	.	.	.	.	.	.	.	.	.	.	.	.
8AA/	.	8c#/	16g 16A/	.	.	4r	.	4r	.	4r	.	.	4r	.	.	8A/	.	8e\	.	4gg\	.	4aa\	.
.	.	.	16g 16A/	.	.	.	.	.	.	.	.	.	.	.	.	.	.	.	.	.	.	.	.
8A\J	.	8E/J	16g 16A/	.	.	.	.	.	.	.	.	.	.	.	.	8A/J	.	8e\J	.	.	.	.	.
.	.	.	16gJJ 16A/	.	.	.	.	.	.	.	.	.	.	.	.	.	.	.	.	.	.	.	.
*	*	*	*	*	*	*	*	*	*	*	*	*	*	*	*	*Xtremolo	*	*Xtremolo	*	*	*	*	*
!	!	!	!LO:LB:g=original	!	!	!	!	!	!	!	!	!	!	!	!	!	!	!	!	!	!	!	!
=11	=11	=11	=11	=11	=11	=11	=11	=11	=11	=11	=11	=11	=11	=11	=11	=11	=11	=11	=11	=11	=11	=11	=11
*	*	*	*	*	*	*	*ij	*	*ij	*	*ij	*	*	*	*	*	*	*	*	*	*	*	*
16r	.	16F#/LL	16f#LL 16A/	.	1ryy	4d\	O-	8D/L	O-	8f#\L	O-	.	1r	.	.	8F#/L	.	8d\L	.	4ff#\	.	4ddd\	.
(16D\LL	.	16A/	16f# 16A/	.	.	.	.	.	.	.	.	.	.	.	.	.	.	.	.	.	.	.	.
16E\	.	16D/	16f# 16A/	.	.	.	.	8F#/	.	8a\	.	.	.	.	.	16F#/L	.	16d\L	.	.	.	.	.
16F#\JJ)	.	16F#/JJ	16f# 16A/	.	.	.	.	.	.	.	.	.	.	.	.	16F#/JJ	.	16d\JJ	.	.	.	.	.
*	*	*rep	*	*	*	*	*	*	*	*	*	*	*	*	*	*	*	*	*	*	*	*	*
!LO:LB:g=original	!	!	!	!	!	!	!	!	!	!	!	!	!	!	!	!	!	!	!	!	!	!	!
(16G\LL	.	16F#/LL	16f# 16A/	.	.	4A\	-mni-	8E/	-mni-	8g\	-mni-	.	.	.	.	8F#/L	.	8d\L	.	4.ff#\	.	4.ddd\	.
16A\	.	16A/	16f# 16A/	.	.	.	.	.	.	.	.	.	.	.	.	.	.	.	.	.	.	.	.
16B\	.	16D/	16f# 16A/	.	.	.	.	8c#/J	.	8e\J	.	.	.	.	.	8F#/J	.	8d\J	.	.	.	.	.
16c#\JJ)	.	16F#/JJ	16f# 16A/	.	.	.	.	.	.	.	.	.	.	.	.	.	.	.	.	.	.	.	.
*	*	*Xrep	*	*	*	*	*	*	*	*	*	*	*	*	*	*	*	*	*	*	*	*	*
*	*	*rep	*	*	*	*	*	*	*	*	*	*	*	*	*	*tremolo	*	*tremolo	*	*	*	*	*
!	!	!	!	!	!	!	!	!LO:LB:g=original	!	!	!	!	!	!	!	!	!	!	!	!	!	!	!
4d\	.	16F#/LL	16f# 16A/	.	.	4D\	-um	4d\	-um	4f#\	-um	.	.	.	.	8F#/L	.	8d\L	.	.	.	.	.
*	*	*	*	*	*	*	*Xij	*	*Xij	*	*Xij	*	*	*	*	*	*	*	*	*	*	*	*
.	.	16A/	16f# 16A/	.	.	.	.	.	.	.	.	.	.	.	.	.	.	.	.	.	.	.	.
.	.	16D/	16f# 16A/	.	.	.	.	.	.	.	.	.	.	.	.	8F#/	.	8d\	.	8ff#\L	.	8ddd\L	.
.	.	16F#/JJ	16f# 16A/	.	.	.	.	.	.	.	.	.	.	.	.	.	.	.	.	.	.	.	.
*	*	*Xrep	*	*	*	*	*	*	*	*	*	*	*	*	*	*	*	*	*	*	*	*	*
*	*	*rep	*	*	*	*	*	*	*	*	*	*	*	*	*	*	*	*	*	*	*	*	*
4r	.	16F#/LL	16f# 16A/	.	.	4r	.	4r	.	4r	.	.	.	.	.	8F#/	.	8d\	.	8ff#\	.	8ddd\	.
.	.	16A/	16f# 16A/	.	.	.	.	.	.	.	.	.	.	.	.	.	.	.	.	.	.	.	.
.	.	16D/	16f# 16A/	.	.	.	.	.	.	.	.	.	.	.	.	8F#/J	.	8d\J	.	8ff#\J	.	8ddd\J	.
.	.	16F#/JJ	16f#JJ 16A/	.	.	.	.	.	.	.	.	.	.	.	.	.	.	.	.	.	.	.	.
*	*	*Xrep	*Xtremolo	*	*	*	*	*	*	*	*	*	*	*	*	*Xtremolo	*	*Xtremolo	*	*	*	*	*
!	!	!LO:LB:g=original	!	!	!	!LO:LB:g=original	!	!	!	!	!	!	!	!	!	!	!	!	!	!	!	!	!
=12	=12	=12	=12	=12	=12	=12	=12	=12	=12	=12	=12	=12	=12	=12	=12	=12	=12	=12	=12	=12	=12	=12	=12
*tremolo	*	*	*	*	*	*	*	*	*	*	*	*	*	*	*	*	*	*	*	*	*	*	*
8A\L	.	16F#/LL	8e/L	.	1ryy	8A\	Et	8e\	Et	8g\	Et	.	8gg\L	Et	.	4A/	.	4e\	.	0r	.	0r	.
.	.	16A/	.	.	.	.	.	.	.	.	.	.	.	.	.	.	.	.	.	.	.	.	.
8A\	.	16E/	8d/	.	.	8A\	in	8d\	in	8g\	in	.	8ff#\J	in	.	.	.	.	.	.	.	.	.
.	.	16A/JJ	.	.	.	.	.	.	.	.	.	.	.	.	.	.	.	.	.	.	.	.	.
*	*	*rep	*	*	*	*	*	*	*	*	*	*	*	*	*	*	*	*	*	*	*	*	*
8A\	.	16F#/LL	8c#/	.	.	8A\	u-	8c#\	u-	8g\	u-	.	8ee\L	u-	.	4r	.	4r	.	.	.	.	.
.	.	16A/	.	.	.	.	.	.	.	.	.	.	.	.	.	.	.	.	.	.	.	.	.
8A\J	.	16E/	8B/J	.	.	8A\	-nu(m)	8B\	-nu(m)	8g\	-nu(m)	.	8dd\J	-nu(m)	.	.	.	.	.	.	.	.	.
.	.	16A/JJ	.	.	.	.	.	.	.	.	.	.	.	.	.	.	.	.	.	.	.	.	.
*	*	*Xrep	*	*	*	*	*	*	*	*	*	*	*	*	*	*	*	*	*	*	*	*	*
*	*	*rep	*	*	*	*	*	*	*	*	*	*	*	*	*	*	*	*	*	*	*	*	*
8AA/L	.	16F#/LL	8A/L	.	.	8A\	Do-	8A\	Do-	8g\	Do-	.	8cc#\L	Do-	.	2r	.	2r	.	.	.	.	.
.	.	16A/	.	.	.	.	.	.	.	.	.	.	.	.	.	.	.	.	.	.	.	.	.
8AA/	.	16E/	8B/	.	.	16A\	-mi-	16B\	-mi-	16g\	-mi-	.	16dd\L	-mi-	.	.	.	.	.	.	.	.	.
.	.	16A/JJ	.	.	.	16A\	-nu(m)	16B\	-nu(m)	16g\	-nu(m)	.	16dd\JJ	-nu(m)	.	.	.	.	.	.	.	.	.
*	*	*Xrep	*	*	*	*	*	*	*	*	*	*	*	*	*	*	*	*	*	*	*	*	*
*	*	*rep	*	*	*	*	*	*	*	*	*	*	*	*	*	*	*	*	*	*	*	*	*
8AA/	.	16F#/LL	8c#/	.	.	8A\	Je-	8c#\	Je-	8g\	Je-	.	8ee\	Je-	.	.	.	.	.	.	.	.	.
.	.	16A/	.	.	.	.	.	.	.	.	.	.	.	.	.	.	.	.	.	.	.	.	.
8AA/J	.	16E/	8d/J	.	.	8A\	-su(m)	8d\	-su(m)	8g\	-su(m)	.	8ff#\	-sum	.	.	.	.	.	.	.	.	.
.	.	16A/JJ	.	.	.	.	.	.	.	.	.	.	.	.	.	.	.	.	.	.	.	.	.
*	*	*Xrep	*	*	*	*	*	*	*	*	*	*	*	*	*	*	*	*	*	*	*	*	*
!	!	!	!	!	!	!	!	!	!	!	!	!	!LO:LB:g=original	!	!	!	!	!	!	!	!	!	!
=13	=13	=13	=13	=13	=13	=13	=13	=13	=13	=13	=13	=13	=13	=13	=13	=13	=13	=13	=13	=13	=13	=13	=13
!	!	!	!	!	!	!	!	!	!	!	!	!	!	!	!LO:DY:b:t=for	!	!	!	!	!	!	!	!
8AA/L	.	16G/LL	8e/L	.	1ryy	4A\	Chri-	8e\	Chri-	4g\	Chri-	.	8gg\	Chri-	f	4A/	.	4e\	.	.	.	.	.
.	.	16A/	.	.	.	.	.	.	.	.	.	.	.	.	.	.	.	.	.	.	.	.	.
8AA/	.	16E/	8d/	.	.	.	.	8d#X\	.	.	.	.	8ff#\	.	.	.	.	.	.	.	.	.	.
.	.	16A/JJ	.	.	.	.	.	.	.	.	.	.	.	.	.	.	.	.	.	.	.	.	.
*	*	*rep	*	*	*	*	*	*	*	*	*	*	*	*	*	*	*	*	*	*	*	*	*
8AA/	.	16G/LL	8e/	.	.	4A\	-stum	4e\	-stum	4g\	-stu(m)	.	4gg\	-stum	.	4r	.	4r	.	.	.	.	.
.	.	16A/	.	.	.	.	.	.	.	.	.	.	.	.	.	.	.	.	.	.	.	.	.
8AA/J	.	16E/	8f#/J	.	.	.	.	.	.	.	.	.	.	.	.	.	.	.	.	.	.	.	.
.	.	16A/JJ	.	.	.	.	.	.	.	.	.	.	.	.	.	.	.	.	.	.	.	.	.
*	*	*Xrep	*	*	*	*	*	*	*	*	*	*	*	*	*	*	*	*	*	*	*	*	*
*	*	*rep	*	*	*	*	*	*	*	*	*	*	*	*	*	*	*	*	*	*	*	*	*
8AA/L	.	16G/LL	8g/L	.	.	2r	.	2r	.	2r	.	.	4r	.	.	4A/	.	4e\	.	.	.	.	.
.	.	16A/	.	.	.	.	.	.	.	.	.	.	.	.	.	.	.	.	.	.	.	.	.
8AA/	.	16E/	8f#/	.	.	.	.	.	.	.	.	.	.	.	.	.	.	.	.	.	.	.	.
.	.	16A/JJ	.	.	.	.	.	.	.	.	.	.	.	.	.	.	.	.	.	.	.	.	.
*	*	*Xrep	*	*	*	*	*	*	*	*	*	*	*	*	*	*	*	*	*	*	*	*	*
*	*	*rep	*	*	*	*	*	*	*	*	*	*	*	*	*	*	*	*	*	*	*	*	*
8AA/	.	16G/LL	8g/	.	.	.	.	.	.	.	.	.	4r	.	.	4r	.	4r	.	.	.	.	.
.	.	16A/	.	.	.	.	.	.	.	.	.	.	.	.	.	.	.	.	.	.	.	.	.
8AA/J	.	16E/	8e/J	.	.	.	.	.	.	.	.	.	.	.	.	.	.	.	.	.	.	.	.
.	.	16A/JJ	.	.	.	.	.	.	.	.	.	.	.	.	.	.	.	.	.	.	.	.	.
*Xtremolo	*	*Xrep	*	*	*	*	*	*	*	*	*	*	*	*	*	*	*	*	*	*	*	*	*
=14	=14	=14	=14	=14	=14	=14	=14	=14	=14	=14	=14	=14	=14	=14	=14	=14	=14	=14	=14	=14	=14	=14	=14
*	*	*	*tremolo	*	*	*	*	*	*	*	*	*	*	*	*	*	*	*	*	*	*	*	*
16D\LL	.	16d\LL	16f#LL 16A/	.	1ryy	2r	.	8f#\L	fi-	2r	.	.	8aa\L	fi-	.	8r	.	8r	.	8r	.	8r	.
16d\J	.	16a\	16f# 16A/	.	.	.	.	.	.	.	.	.	.	.	.	.	.	.	.	.	.	.	.
8D\J	.	16f#\	16f# 16A/	.	.	.	.	8d\J	-li-	.	.	.	8ff#\J	-li-	.	8F#/L	.	8d\L	.	8dd\L	.	8ff#\L	.
.	.	16a\JJ	16f# 16A/	.	.	.	.	.	.	.	.	.	.	.	.	.	.	.	.	.	.	.	.
*	*	*rep	*	*	*	*	*	*	*	*	*	*	*	*	*	*	*	*	*	*	*	*	*
8D\L	.	16d\LL	16f# 16A/	.	.	.	.	4f#\	-um	.	.	.	4dd\	-um	.	8F#/J	.	8d\J	.	8dd\J	.	8ff#\J	.
.	.	16a\	16f# 16A/	.	.	.	.	.	.	.	.	.	.	.	.	.	.	.	.	.	.	.	.
8D\J	.	16f#\	16f# 16A/	.	.	.	.	.	.	.	.	.	.	.	.	8r	.	8r	.	8r	.	8r	.
.	.	16a\JJ	16f#JJ 16A/	.	.	.	.	.	.	.	.	.	.	.	.	.	.	.	.	.	.	.	.
*	*	*Xrep	*	*	*	*	*	*	*	*	*	*	*	*	*	*	*	*	*	*	*	*	*
!LO:TX:t=P:problem:mixed beam	!	!	!	!	!	!	!	!	!	!	!	!	!	!	!	!	!	!	!	!	!	!	!
16AA/LL	.	16e\LL	16gLL 16A/	.	.	8e\L	De-	2r	.	8g\L	De-	.	2r	.	.	8r	.	8r	.	8r	.	8r	.
16A\J	.	16a\	16g 16A/	.	.	.	.	.	.	.	.	.	.	.	.	.	.	.	.	.	.	.	.
8AA/J	.	16g\	16g 16A/	.	.	8c#\J	.	.	.	8e\J	.	.	.	.	.	8A/L	.	8e\L	.	8ee\L	.	8gg\L	.
.	.	16a\JJ	16g 16A/	.	.	.	.	.	.	.	.	.	.	.	.	.	.	.	.	.	.	.	.
*	*	*rep	*	*	*	*	*	*	*	*	*	*	*	*	*	*	*	*	*	*	*	*	*
8AA/L	.	16e\LL	16g 16A/	.	.	4A\	-i	.	.	4c#\	-i	.	.	.	.	8A/J	.	8e\J	.	8ee\J	.	8gg\J	.
.	.	16a\	16g 16A/	.	.	.	.	.	.	.	.	.	.	.	.	.	.	.	.	.	.	.	.
8AA/J	.	16g\	16g 16A/	.	.	.	.	.	.	.	.	.	.	.	.	8r	.	8r	.	8r	.	8r	.
.	.	16a\JJ	16gJJ 16A/	.	.	.	.	.	.	.	.	.	.	.	.	.	.	.	.	.	.	.	.
*	*	*Xrep	*	*	*	*	*	*	*	*	*	*	*	*	*	*	*	*	*	*	*	*	*
!	!	!	!	!	!	!	!	!	!	!LO:LB:g=original	!	!	!	!	!	!	!	!LO:LB:g=original	!	!	!	!	!
=15	=15	=15	=15	=15	=15	=15	=15	=15	=15	=15	=15	=15	=15	=15	=15	=15	=15	=15	=15	=15	=15	=15	=15
16D\LL	.	16d\LL	16f#LL 16A/	.	1ryy	8F#\L	U-	8a\L	U-	2r	.	.	2r	.	.	8r	.	8r	.	8r	.	8r	.
16d\J	.	16a\	16f# 16A/	.	.	.	.	.	.	.	.	.	.	.	.	.	.	.	.	.	.	.	.
8D\J	.	16f#\	16f# 16A/	.	.	8D\J	.	8f#\J	.	.	.	.	.	.	.	8F#/L	.	8d\L	.	8dd\	.	8ff#\L	.
.	.	16a\JJ	16f# 16A/	.	.	.	.	.	.	.	.	.	.	.	.	.	.	.	.	.	.	.	.
*	*	*rep	*	*	*	*	*	*	*	*	*	*	*	*	*	*	*	*	*	*	*	*	*
8D\L	.	16d\LL	16f# 16A/	.	.	4F#\	-ni	4d\	-ni	.	.	.	.	.	.	8F#/J	.	8d\J	.	4dd\	.	8ff#\J	.
.	.	16a\	16f# 16A/	.	.	.	.	.	.	.	.	.	.	.	.	.	.	.	.	.	.	.	.
8D\J	.	16f#\	16f# 16A/	.	.	.	.	.	.	.	.	.	.	.	.	8r	.	8r	.	.	.	8r	.
.	.	16a\JJ	16f#JJ 16A/	.	.	.	.	.	.	.	.	.	.	.	.	.	.	.	.	.	.	.	.
*	*	*Xrep	*	*	*	*	*	*	*	*	*	*	*	*	*	*	*	*	*	*	*	*	*
!LO:TX:t=P:problem:mixed beam	!	!	!	!	!	!	!	!	!	!	!	!	!	!	!	!	!	!	!	!	!	!	!
16AA/LL	.	16e\LL	16gLL 16A/	.	.	2r	.	2r	.	8ee\L	Ge-	.	8gg\L	Ge-	.	8r	.	8r	.	8r	.	8r	.
16A\J	.	16a\	16g 16A/	.	.	.	.	.	.	.	.	.	.	.	.	.	.	.	.	.	.	.	.
8AA/J	.	16g\	16g 16A/	.	.	.	.	.	.	8cc#\J	-ni-	.	8ee\J	-ni-	.	8A/L	.	8e\L	.	8ee\	.	8gg\L	.
.	.	16a\JJ	16g 16A/	.	.	.	.	.	.	.	.	.	.	.	.	.	.	.	.	.	.	.	.
*	*	*rep	*	*	*	*	*	*	*	*	*	*	*	*	*	*	*	*	*	*	*	*	*
8AA/L	.	16e\LL	16g 16A/	.	.	.	.	.	.	4a\	-tu(m)	.	4cc#\	-tum	.	8A/J	.	8e\J	.	4ee\	.	8gg\J	.
.	.	16a\	16g 16A/	.	.	.	.	.	.	.	.	.	.	.	.	.	.	.	.	.	.	.	.
8AA/J	.	16g\	16g 16A/	.	.	.	.	.	.	.	.	.	.	.	.	8r	.	8r	.	.	.	8r	.
.	.	16a\JJ	16gJJ 16A/	.	.	.	.	.	.	.	.	.	.	.	.	.	.	.	.	.	.	.	.
*	*	*Xrep	*Xtremolo	*	*	*	*	*	*	*	*	*	*	*	*	*	*	*	*	*	*	*	*
!	!	!	!	!	!	!	!	!	!	!	!	!	!	!	!	!	!	!	!	!LO:LB:g=original	!	!	!
=16	=16	=16	=16	=16	=16	=16	=16	=16	=16	=16	=16	=16	=16	=16	=16	=16	=16	=16	=16	=16	=16	=16	=16
!	!	!	!	!	!	!	!	!	!	!	!	!	!	!	!	!	!LO:DY:t=po	!	!LO:DY:t=po	!	!	!	!
4D\	.	16d\LL	8f#L 8A/	.	1ryy	8D\	Et	0r	.	0r	.	.	0r	.	.	8F#/L	p	8d\L	p	8dd\L	pp	8ff#\L	pp
.	.	16a\	.	.	.	.	.	.	.	.	.	.	.	.	.	.	.	.	.	.	.	.	.
.	.	16f#\	(32d/LL	.	.	8F#\	ex	.	.	.	.	.	.	.	.	8F#/	.	8d\	.	8dd\	.	8ff#\	.
.	.	.	32e/	.	.	.	.	.	.	.	.	.	.	.	.	.	.	.	.	.	.	.	.
.	.	16a\JJ	32f#/	.	.	.	.	.	.	.	.	.	.	.	.	.	.	.	.	.	.	.	.
.	.	.	32g/JJJ)	.	.	.	.	.	.	.	.	.	.	.	.	.	.	.	.	.	.	.	.
*	*	*rep	*	*	*	*	*	*	*	*	*	*	*	*	*	*	*	*	*	*	*	*	*
4r	.	16d\LL	8a/L	.	.	8A\	pa-	.	.	.	.	.	.	.	.	8d/	.	8f#\	.	8ff#\	.	8aa\	.
.	.	16a\	.	.	.	.	.	.	.	.	.	.	.	.	.	.	.	.	.	.	.	.	.
!	!	!	!LO:TUP:b:problem:klamra łukowa	!	!	!	!	!	!	!	!	!	!	!	!	!	!	!	!	!	!	!	!
.	.	16f#\	24a/L	.	.	8c#\	-tre	.	.	.	.	.	.	.	.	8d/J	.	8f#\J	.	8ff#\J	.	8aa\J	.
.	.	.	24b/	.	.	.	.	.	.	.	.	.	.	.	.	.	.	.	.	.	.	.	.
.	.	16a\JJ	.	.	.	.	.	.	.	.	.	.	.	.	.	.	.	.	.	.	.	.	.
.	.	.	24cc#/JJ	.	.	.	.	.	.	.	.	.	.	.	.	.	.	.	.	.	.	.	.
*	*	*Xrep	*	*	*	*	*	*	*	*	*	*	*	*	*	*	*	*	*	*	*	*	*
*	*	*rep	*	*	*	*	*	*	*	*	*	*	*	*	*	*	*	*	*	*	*	*	*
!	!	!	!LO:TX:t=P:problem:mixed beam	!	!	!LO:LB:g=original	!	!	!	!	!	!	!	!	!	!	!	!	!	!	!	!	!
4d\	.	16d\LL	8dd\L	.	.	8d\	na-	.	.	.	.	.	.	.	.	8d\L	.	8f#\L	.	8dd\L	.	8ff#\L	.
.	.	16a\	.	.	.	.	.	.	.	.	.	.	.	.	.	.	.	.	.	.	.	.	.
.	.	16f#\	32d/LL	.	.	8F#\	-tum	.	.	.	.	.	.	.	.	8d\	.	8f#\	.	8dd\	.	8ff#\	.
.	.	.	32e/	.	.	.	.	.	.	.	.	.	.	.	.	.	.	.	.	.	.	.	.
.	.	16a\JJ	32f#/	.	.	.	.	.	.	.	.	.	.	.	.	.	.	.	.	.	.	.	.
.	.	.	32g/JJJ	.	.	.	.	.	.	.	.	.	.	.	.	.	.	.	.	.	.	.	.
*	*	*Xrep	*	*	*	*	*	*	*	*	*	*	*	*	*	*	*	*	*	*	*	*	*
*	*	*rep	*	*	*	*	*	*	*	*	*	*	*	*	*	*	*	*	*	*	*	*	*
16r	.	16d\LL	8a/L	.	.	8A\	an-	.	.	.	.	.	.	.	.	8f#\	.	8a\	.	8ff#\	.	8aa\	.
(16A\LL	.	16a\	.	.	.	.	.	.	.	.	.	.	.	.	.	.	.	.	.	.	.	.	.
!	!	!	!LO:TUP:b:problem:klamra łukowa	!	!	!	!	!	!	!	!	!	!	!	!	!	!	!	!	!	!	!	!
16B\	.	16f#\	24a/L	.	.	8c#\	te	.	.	.	.	.	.	.	.	8f#\J	.	8a\J	.	8ff#\J	.	8aa\J	.
.	.	.	24b/	.	.	.	.	.	.	.	.	.	.	.	.	.	.	.	.	.	.	.	.
16c#\JJ)	.	16a\JJ	.	.	.	.	.	.	.	.	.	.	.	.	.	.	.	.	.	.	.	.	.
.	.	.	24cc#/JJ	.	.	.	.	.	.	.	.	.	.	.	.	.	.	.	.	.	.	.	.
*	*	*Xrep	*	*	*	*	*	*	*	*	*	*	*	*	*	*	*	*	*	*	*	*	*
!	!	!LO:LB:g=original	!	!	!	!	!	!	!	!	!	!	!	!	!	!	!	!	!	!	!	!LO:LB:g=original	!
=17	=17	=17	=17	=17	=17	=17	=17	=17	=17	=17	=17	=17	=17	=17	=17	=17	=17	=17	=17	=17	=17	=17	=17
*	*	*	*	*	*	*	*	*	*	*	*	*	*	*	*	*	*	*	*	*	*	*2\right	*
*	*	*	*	*	*	*	*	*	*	*	*	*	*	*	*	*	*	*	*	*	*	*tremolo	*
!	!	!	!	!	!	!	!	!	!	!	!	!	!	!	!	!LO:TX:t=P:problem:mixed beam	!	!	!	!	!	!	!
4d\	.	16d\LL	8dd\L	.	1ryy	8.d\L	O-	.	.	.	.	.	.	.	.	8d\L	.	8f#\L	.	8dd\L	.	8ff#\L	.
.	.	16a\	.	.	.	.	.	.	.	.	.	.	.	.	.	.	.	.	.	.	.	.	.
!	!	!	!LO:TUP:a:problem:klamra łukowa	!	!	!	!	!	!	!	!	!	!	!	!	!	!	!	!	!	!	!	!
.	.	16f#\	24a\L	.	.	.	.	.	.	.	.	.	.	.	.	8F#/	.	8d\	.	8dd\	.	8ff#\	.
.	.	.	24b\	.	.	.	.	.	.	.	.	.	.	.	.	.	.	.	.	.	.	.	.
.	.	16a\JJ	.	.	.	16c#\Jk	-mni-	.	.	.	.	.	.	.	.	.	.	.	.	.	.	.	.
.	.	.	24cc#\JJ	.	.	.	.	.	.	.	.	.	.	.	.	.	.	.	.	.	.	.	.
*	*	*rep	*	*	*	*	*	*	*	*	*	*	*	*	*	*	*	*	*	*	*	*	*
!	!	!	!LO:LB:g=original	!	!	!	!	!	!	!	!	!	!	!	!	!	!	!	!	!	!	!	!
4D/	.	16d\LL	8dd\L	.	.	8.d\	-a	.	.	.	.	.	.	.	.	8F#/	.	8d\	.	8dd\	.	8ff#\	.
.	.	16a\	.	.	.	.	.	.	.	.	.	.	.	.	.	.	.	.	.	.	.	.	.
*	*	*	*Xtuplet	*	*	*	*	*	*	*	*	*	*	*	*	*	*	*	*	*	*	*	*
.	.	16f#\	24a\L	.	.	.	.	.	.	.	.	.	.	.	.	8F#/J	.	8d\J	.	8dd\J	.	8ff#\J	.
.	.	.	24b\	.	.	.	.	.	.	.	.	.	.	.	.	.	.	.	.	.	.	.	.
.	.	16a\JJ	.	.	.	16c#\	se-	.	.	.	.	.	.	.	.	.	.	.	.	.	.	.	.
.	.	.	24cc#\JJ	.	.	.	.	.	.	.	.	.	.	.	.	.	.	.	.	.	.	.	.
*	*	*Xrep	*	*	*	*	*	*	*	*	*	*	*	*	*	*	*	*	*	*	*	*	*
*	*	*rep	*tremolo	*	*	*	*	*	*	*	*	*	*	*	*	*	*	*	*	*	*	*Xtremolo	*
!	!	!	!	!	!	!LO:TX:t=P:problem:mixed beam	!	!	!	!	!	!	!	!	!	!LO:LB:g=original	!	!	!	!	!	!	!
16d\LL	.	16d\LL	16ddLL 16f#/	.	.	8d\L	-cu-	.	.	.	.	.	.	.	.	4F#/	.	4d\	.	4dd\	.	4ff#\	.
16c#\	.	16a\	16dd 16f#/	.	.	.	.	.	.	.	.	.	.	.	.	.	.	.	.	.	.	.	.
16B\	.	16f#\	16dd 16f#/	.	.	8D/J	-la	.	.	.	.	.	.	.	.	.	.	.	.	.	.	.	.
16A\JJ	.	16a\JJ	16dd 16f#/	.	.	.	.	.	.	.	.	.	.	.	.	.	.	.	.	.	.	.	.
*	*	*Xrep	*	*	*	*	*	*	*	*	*	*	*	*	*	*	*	*	*	*	*	*	*
*	*	*rep	*	*	*	*	*	*	*	*	*	*	*	*	*	*	*	*	*	*	*	*	*
!LO:LB:g=original	!	!	!	!	!	!	!	!	!	!	!	!	!	!	!	!	!	!	!	!	!	!	!
16G\LL	.	16d\LL	16dd 16f#/	.	.	4r	.	.	.	.	.	.	.	.	.	4r	.	4r	.	4r	.	4r	.
16F#\	.	16a\	16dd 16f#/	.	.	.	.	.	.	.	.	.	.	.	.	.	.	.	.	.	.	.	.
16E\	.	16f#\	16dd 16f#/	.	.	.	.	.	.	.	.	.	.	.	.	.	.	.	.	.	.	.	.
16D\JJ	.	16a\JJ	16ddJJ 16f#/	.	.	.	.	.	.	.	.	.	.	.	.	.	.	.	.	.	.	.	.
*	*	*Xrep	*Xtremolo	*	*	*	*	*	*	*	*	*	*	*	*	*	*	*	*	*	*	*	*
=18	=18	=18	=18	=18	=18	=18	=18	=18	=18	=18	=18	=18	=18	=18	=18	=18	=18	=18	=18	=18	=18	=18	=18
!	!	!	!	!	!	!	!	!	!	!	!	!LO:DY:b:t=p	!	!	!LO:DY:b	!	!	!	!	!	!	!	!
4AA/	.	16e\LL	4cc# 4e/	.	1ryy	4A\	De-	4e\	De-	4cc#\	Deu(m)	p	4gg\	De-	p	8A/L	.	8e\L	.	8ee\L	.	8gg\L	.
.	.	16a\	.	.	.	.	.	.	.	.	.	.	.	.	.	.	.	.	.	.	.	.	.
.	.	16g\	.	.	.	.	.	.	.	.	.	.	.	.	.	8A/	.	8e\	.	8ff#\	.	8aa\	.
.	.	16a\JJ	.	.	.	.	.	.	.	.	.	.	.	.	.	.	.	.	.	.	.	.	.
*	*	*rep	*	*	*	*	*	*	*	*	*	*	*	*	*	*	*	*	*	*	*	*	*
8r	.	16e\LL	8r	.	.	8.A\	-um	8e\	-u(m)	8cc#\L	.	.	8gg\	-um	.	8A/J	.	8e\J	.	8ee\J	.	8gg\J	.
.	.	16a\	.	.	.	.	.	.	.	.	.	.	.	.	.	.	.	.	.	.	.	.	.
8A\	.	16g\	8ee 8cc#\	.	.	.	.	8e\	de	8cc#\J	de	.	8gg\	de	.	8r	.	8r	.	8r	.	8r	.
.	.	16a\JJ	.	.	.	16A\	de	.	.	.	.	.	.	.	.	.	.	.	.	.	.	.	.
*	*	*Xrep	*2\right	*	*	*	*	*	*	*	*	*	*	*	*	*	*	*	*	*	*	*	*
*tremolo	*	*rep	*tremolo	*	*	*2\right	*	*2\right	*	*	*	*	*2\right	*	*	*	*	*	*	*	*	*	*
!	!	!	!	!	!	!	!	!	!	!	!	!	!	!	!	!	!	!	!	!	!	!	!LO:DY:t=p
8AA/L	.	16e\LL	8eeL 8cc#\	.	.	2A\	de-	2e\	De-	2cc#\	De-	.	2gg\	De-	.	2r	.	2r	.	4cc#\	p	4ee\	p
.	.	16a\	.	.	.	.	.	.	.	.	.	.	.	.	.	.	.	.	.	.	.	.	.
8AA/	.	16g\	8ee 8cc#\	.	.	.	.	.	.	.	.	.	.	.	.	.	.	.	.	.	.	.	.
.	.	16a\JJ	.	.	.	.	.	.	.	.	.	.	.	.	.	.	.	.	.	.	.	.	.
*	*	*Xrep	*	*	*	*	*	*	*	*	*	*	*	*	*	*	*	*	*	*	*	*	*
*	*	*rep	*	*	*	*	*	*	*	*	*	*	*	*	*	*	*	*	*	*	*	*	*
8AA/	.	16e\LL	8ee 8cc#\	.	.	.	.	.	.	.	.	.	.	.	.	.	.	.	.	4ee\	.	4gg\	.
.	.	16a\	.	.	.	.	.	.	.	.	.	.	.	.	.	.	.	.	.	.	.	.	.
8AA/J	.	16g\	8eeJ 8cc#\	.	.	.	.	.	.	.	.	.	.	.	.	.	.	.	.	.	.	.	.
.	.	16a\JJ	.	.	.	.	.	.	.	.	.	.	.	.	.	.	.	.	.	.	.	.	.
*Xtremolo	*	*Xrep	*Xtremolo	*	*	*	*	*	*	*	*	*	*	*	*	*	*	*	*	*	*	*	*
=19	=19	=19	=19	=19	=19	=19	=19	=19	=19	=19	=19	=19	=19	=19	=19	=19	=19	=19	=19	=19	=19	=19	=19
*	*	*	*	*	*	*	*	*	*	*	*	*	*	*	*	*	*	*	*	*2\right	*	*	*
*	*	*	*tuplet	*	*	*	*	*	*	*	*	*	*	*	*	*	*	*	*	*tremolo	*	*tremolo	*
!	!	!	!	!	!	!	!	!	!	!	!	!LO:DY:b:t=for	!	!	!	!	!	!	!LO:DY:t=fr	!	!LO:DY:t=fr.	!	!
4D\	.	16d\LL	8dd\L	.	1ryy	8.D\	-o	4f#\	-o	4dd\	-o	f	4ff#\	-o	.	4F#/	f	4d\	f	8dd\L	f	8ff#\L	f
.	.	16a\	.	.	.	.	.	.	.	.	.	.	.	.	.	.	.	.	.	.	.	.	.
!	!	!	!LO:TUP:a:problem:klamra łukowa	!	!	!	!	!	!	!	!	!	!	!	!	!	!	!	!	!	!	!	!
.	.	16f#\	24a\L	.	.	.	.	.	.	.	.	.	.	.	.	.	.	.	.	8dd\	.	8ff#\	.
.	.	.	24b\	.	.	.	.	.	.	.	.	.	.	.	.	.	.	.	.	.	.	.	.
.	.	16a\JJ	.	.	.	16c#\	lu-	.	.	.	.	.	.	.	.	.	.	.	.	.	.	.	.
.	.	.	24cc#\JJ	.	.	.	.	.	.	.	.	.	.	.	.	.	.	.	.	.	.	.	.
*	*	*rep	*	*	*	*	*	*	*	*	*	*	*	*	*	*	*	*	*	*	*	*	*
16r	.	16d\LL	8dd\L	.	.	8.d\	-men	4r	.	4r	.	.	4r	.	.	4r	.	4r	.	8dd\	.	8ff#\	.
16A\LL	.	16a\	.	.	.	.	.	.	.	.	.	.	.	.	.	.	.	.	.	.	.	.	.
!	!	!	!LO:TUP:a:problem:klamra łukowa	!	!	!	!	!	!	!	!	!	!	!	!	!	!	!	!	!	!	!	!
16B\	.	16f#\	24a\L	.	.	.	.	.	.	.	.	.	.	.	.	.	.	.	.	8dd\J	.	8ff#\J	.
.	.	.	24b\	.	.	.	.	.	.	.	.	.	.	.	.	.	.	.	.	.	.	.	.
16c#\JJ	.	16a\JJ	.	.	.	16c#\	.	.	.	.	.	.	.	.	.	.	.	.	.	.	.	.	.
.	.	.	24cc#\JJ	.	.	.	.	.	.	.	.	.	.	.	.	.	.	.	.	.	.	.	.
*	*	*Xrep	*	*	*	*	*	*	*	*	*	*	*	*	*	*	*	*	*	*	*	*	*
*	*	*rep	*	*	*	*	*	*	*	*	*	*	*	*	*	*	*	*	*	*Xtremolo	*	*Xtremolo	*
16d\LL	.	16d\LL	(16dd/LL	.	.	8.d\	lu-	2r	.	2r	.	.	2r	.	.	2r	.	2r	.	4dd\	.	4ff#\	.
16c#\	.	16a\	16cc#/	.	.	.	.	.	.	.	.	.	.	.	.	.	.	.	.	.	.	.	.
16B\	.	16f#\	16b/	.	.	.	.	.	.	.	.	.	.	.	.	.	.	.	.	.	.	.	.
16A\JJ	.	16a\JJ	16a/JJ	.	.	16D\	-mi-	.	.	.	.	.	.	.	.	.	.	.	.	.	.	.	.
*	*	*Xrep	*	*	*	*	*	*	*	*	*	*	*	*	*	*	*	*	*	*	*	*	*
*	*	*rep	*	*	*	*	*	*	*	*	*	*	*	*	*	*	*	*	*	*	*	*	*
16G\LL	.	16d\LL	16g/LL	.	.	4D/	-ne	.	.	.	.	.	.	.	.	.	.	.	.	4r	.	4r	.
16F#\	.	16a\	16f#/	.	.	.	.	.	.	.	.	.	.	.	.	.	.	.	.	.	.	.	.
16E\	.	16f#\	16e/	.	.	.	.	.	.	.	.	.	.	.	.	.	.	.	.	.	.	.	.
16D\JJ	.	16a\JJ	16d/JJ)	.	.	.	.	.	.	.	.	.	.	.	.	.	.	.	.	.	.	.	.
*	*	*Xrep	*	*	*	*	*	*	*	*	*	*	*	*	*	*	*	*	*	*	*	*	*
!	!	!	!	!	!	!	!	!LO:LB:g=original	!	!	!	!	!	!	!	!	!	!	!	!	!	!	!
=20	=20	=20	=20	=20	=20	=20	=20	=20	=20	=20	=20	=20	=20	=20	=20	=20	=20	=20	=20	=20	=20	=20	=20
4AA/	.	16e\LL	4e 4A/	.	1ryy	4A\	De-	4e\	De-	4cc#\	De-	.	4gg\	De-	.	8A/L	.	8e\L	.	8ee\L	.	8gg\L	.
.	.	16a\	.	.	.	.	.	.	.	.	.	.	.	.	.	.	.	.	.	.	.	.	.
.	.	16g\	.	.	.	.	.	.	.	.	.	.	.	.	.	8A/	.	8e\	.	8ff#\	.	8aa\	.
.	.	16a\JJ	.	.	.	.	.	.	.	.	.	.	.	.	.	.	.	.	.	.	.	.	.
*	*	*rep	*	*	*	*	*	*	*	*	*	*	*	*	*	*	*	*	*	*	*	*	*
!	!	!	!	!	!	!	!	!	!	!	!	!LO:DY:b	!	!	!	!	!	!	!	!	!	!	!
8r	.	16e\LL	8r	.	.	4A\	-um	4e\	-um	4cc#\	-um	p	4gg\	-u(m)	.	8A/J	.	8e\J	.	8ee\J	.	8gg\J	.
.	.	16a\	.	.	.	.	.	.	.	.	.	.	.	.	.	.	.	.	.	.	.	.	.
8AA/	.	16g\	8ee 8cc#\	.	.	.	.	.	.	.	.	.	.	.	.	8r	.	8r	.	8r	.	8r	.
.	.	16a\JJ	.	.	.	.	.	.	.	.	.	.	.	.	.	.	.	.	.	.	.	.	.
*	*	*Xrep	*	*	*	*	*	*	*	*	*	*	*	*	*	*	*	*	*	*	*	*	*
*tremolo	*	*rep	*tremolo	*	*	*	*	*	*	*	*	*	*	*	*	*	*	*	*	*	*	*	*
!	!	!	!	!	!	!LO:LB:g=original	!	!	!	!	!	!	!	!	!	!	!	!	!	!	!	!	!LO:DY:t=p
8AA/L	.	16e\LL	8eeL 8cc#\	.	.	4A\	ve-	4e\	ve-	4cc#\	ve-	.	4gg\	ve-	.	2r	.	2r	.	4cc#\	p	4ee\	p
.	.	16a\	.	.	.	.	.	.	.	.	.	.	.	.	.	.	.	.	.	.	.	.	.
8AA/	.	16g\	8ee 8cc#\	.	.	.	.	.	.	.	.	.	.	.	.	.	.	.	.	.	.	.	.
.	.	16a\JJ	.	.	.	.	.	.	.	.	.	.	.	.	.	.	.	.	.	.	.	.	.
*	*	*Xrep	*	*	*	*	*	*	*	*	*	*	*	*	*	*	*	*	*	*	*	*	*
*	*	*rep	*	*	*	*	*	*	*	*	*	*	*	*	*	*	*	*	*	*	*	*	*
8AA/	.	16e\LL	8ee 8cc#\	.	.	8A\	-rum	8e\	-ru(m)	8cc#\	-ru(m)	.	8gg\	-ru(m)	.	.	.	.	.	4ee\	.	4gg\	.
.	.	16a\	.	.	.	.	.	.	.	.	.	.	.	.	.	.	.	.	.	.	.	.	.
8AA/J	.	16g\	8eeJ 8cc#\	.	.	8A\	de	8e\	De	8cc#\	de	.	8gg\	de	.	.	.	.	.	.	.	.	.
.	.	16a\JJ	.	.	.	.	.	.	.	.	.	.	.	.	.	.	.	.	.	.	.	.	.
*Xtremolo	*	*Xrep	*Xtremolo	*	*	*	*	*	*	*	*	*	*	*	*	*	*	*	*	*	*	*	*
=21	=21	=21	=21	=21	=21	=21	=21	=21	=21	=21	=21	=21	=21	=21	=21	=21	=21	=21	=21	=21	=21	=21	=21
4D\	.	16d\LL	4dd 4d/	.	1ryy	4D\	De-	4A\	de-	4dd\	De-	.	4ff#\	De-	.	8F#/L	.	8d\L	.	8dd\L	.	8ff#\L	.
.	.	16a\	.	.	.	.	.	.	.	.	.	.	.	.	.	.	.	.	.	.	.	.	.
.	.	16f#\	.	.	.	.	.	.	.	.	.	.	.	.	.	8F#/	.	8d\	.	8ff#\	.	8aa\	.
.	.	16a\JJ	.	.	.	.	.	.	.	.	.	.	.	.	.	.	.	.	.	.	.	.	.
*	*	*rep	*	*	*	*	*	*	*	*	*	*	*	*	*	*	*	*	*	*	*	*	*
8r	.	16d\LL	8r	.	.	4D\	-o	4a\	-o	4dd\	-o	.	4ff#\	-o	.	8F#/J	.	8d\J	.	8dd\J	.	8ff#\J	.
.	.	16a\	.	.	.	.	.	.	.	.	.	.	.	.	.	.	.	.	.	.	.	.	.
8d\	.	16f#\	8a/	.	.	.	.	.	.	.	.	.	.	.	.	8r	.	8r	.	8r	.	8r	.
.	.	16a\JJ	.	.	.	.	.	.	.	.	.	.	.	.	.	.	.	.	.	.	.	.	.
*	*	*Xrep	*	*	*	*	*	*	*	*	*	*	*	*	*	*	*	*	*	*	*	*	*
*tremolo	*	*rep	*tremolo	*	*	*	*	*	*	*	*	*	*	*	*	*	*	*	*	*	*	*	*
8D\L	.	16d\LL	8a/L	.	.	2d\	ve-	2A\	ve-	2dd\	ve-	.	2ff#\	ve-	.	2r	.	2r	.	4a/	.	4dd\	.
.	.	16a\	.	.	.	.	.	.	.	.	.	.	.	.	.	.	.	.	.	.	.	.	.
8D\	.	16f#\	8a/	.	.	.	.	.	.	.	.	.	.	.	.	.	.	.	.	.	.	.	.
.	.	16a\JJ	.	.	.	.	.	.	.	.	.	.	.	.	.	.	.	.	.	.	.	.	.
*	*	*Xrep	*	*	*	*	*	*	*	*	*	*	*	*	*	*	*	*	*	*	*	*	*
*	*	*rep	*	*	*	*	*	*	*	*	*	*	*	*	*	*	*	*	*	*	*	*	*
8D\	.	16d\LL	8a/	.	.	.	.	.	.	.	.	.	.	.	.	.	.	.	.	4dd\	.	4ff#\	.
.	.	16a\	.	.	.	.	.	.	.	.	.	.	.	.	.	.	.	.	.	.	.	.	.
8D\J	.	16f#\	8a/J	.	.	.	.	.	.	.	.	.	.	.	.	.	.	.	.	.	.	.	.
.	.	16a\JJ	.	.	.	.	.	.	.	.	.	.	.	.	.	.	.	.	.	.	.	.	.
*Xtremolo	*	*Xrep	*Xtremolo	*	*	*	*	*	*	*	*	*	*	*	*	*	*	*	*	*	*	*	*
=22	=22	=22	=22	=22	=22	=22	=22	=22	=22	=22	=22	=22	=22	=22	=22	=22	=22	=22	=22	=22	=22	=22	=22
!LO:TX:t=P:problem:mixed beam	!	!	!	!	!	!	!	!	!	!	!	!	!	!	!	!	!	!	!	!	!	!	!
8A\L	.	16e\LL	8a/L	.	1ryy	4A\	-ro	4A\	-ro	4cc#\	-ro	.	4ee\	-ro	.	4A/	.	4e\	.	4cc#\	f	4ee\	f
.	.	16a\	.	.	.	.	.	.	.	.	.	.	.	.	.	.	.	.	.	.	.	.	.
8AA/J	.	16g\	8A/J	.	.	.	.	.	.	.	.	.	.	.	.	.	.	.	.	.	.	.	.
.	.	16a\JJ	.	.	.	.	.	.	.	.	.	.	.	.	.	.	.	.	.	.	.	.	.
*	*	*rep	*	*	*	*	*	*	*	*	*	*	*	*	*	*	*	*	*	*	*	*	*
4A\	.	16e\LL	8c#/L	.	.	4r	.	4r	.	4r	.	.	4r	.	.	4r	.	4r	.	4r	.	4r	.
.	.	16a\	.	.	.	.	.	.	.	.	.	.	.	.	.	.	.	.	.	.	.	.	.
.	.	16g\	8a/J	.	.	.	.	.	.	.	.	.	.	.	.	.	.	.	.	.	.	.	.
.	.	16a\JJ	.	.	.	.	.	.	.	.	.	.	.	.	.	.	.	.	.	.	.	.	.
*	*	*Xrep	*	*	*	*	*	*	*	*	*	*	*	*	*	*	*	*	*	*	*	*	*
!	!	!LO:LB:g=original	!	!	!	!	!	!	!	!	!	!	!	!	!	!	!	!	!	!	!	!	!
4AA/	.	16e\LL	8c#/L	.	.	2r	.	2r	.	2r	.	.	2r	.	.	2r	.	2r	.	2r	.	2r	.
.	.	16a\	.	.	.	.	.	.	.	.	.	.	.	.	.	.	.	.	.	.	.	.	.
.	.	16g\	8a/	.	.	.	.	.	.	.	.	.	.	.	.	.	.	.	.	.	.	.	.
.	.	16a\JJ	.	.	.	.	.	.	.	.	.	.	.	.	.	.	.	.	.	.	.	.	.
*	*	*rep	*	*	*	*	*	*	*	*	*	*	*	*	*	*	*	*	*	*	*	*	*
4A\	.	16e\LL	8g/	.	.	.	.	.	.	.	.	.	.	.	.	.	.	.	.	.	.	.	.
.	.	16a\	.	.	.	.	.	.	.	.	.	.	.	.	.	.	.	.	.	.	.	.	.
.	.	16g\	8a/J	.	.	.	.	.	.	.	.	.	.	.	.	.	.	.	.	.	.	.	.
.	.	16a\JJ	.	.	.	.	.	.	.	.	.	.	.	.	.	.	.	.	.	.	.	.	.
*	*	*Xrep	*	*	*	*	*	*	*	*	*	*	*	*	*	*	*	*	*	*	*	*	*
!	!	!	!	!	!	!	!	!	!	!	!	!	!LO:LB:g=original	!	!	!	!	!	!	!	!	!	!
=23	=23	=23	=23	=23	=23	=23	=23	=23	=23	=23	=23	=23	=23	=23	=23	=23	=23	=23	=23	=23	=23	=23	=23
*	*	*tremolo	*tremolo	*	*	*	*	*	*	*	*	*	*	*	*	*	*	*	*	*	*	*	*
!	!	!LO:N:TREM:vis=2.	!	!	!	!	!	!	!	!	!	!	!	!	!	!	!	!LO:TX:a:t=2	!	!	!	!	!
4D\	.	8f#\L	8f#/L	.	1ryy	00r	.	1r	.	00r	.	.	2r	.	.	0r	.	0r	.	0r	.	0r	.
.	.	8a\	8A/	.	.	.	.	.	.	.	.	.	.	.	.	.	.	.	.	.	.	.	.
4d\	.	8f#\	8f#/	.	.	.	.	.	.	.	.	.	.	.	.	.	.	.	.	.	.	.	.
.	.	8a\J	8A/J	.	.	.	.	.	.	.	.	.	.	.	.	.	.	.	.	.	.	.	.
*	*	*rep	*	*	*	*	*	*	*	*	*	*	*	*	*	*	*	*	*	*	*	*	*
!	!	!LO:N:TREM:vis=2.	!LO:LB:g=original	!	!	!	!	!	!	!	!	!	!	!	!	!	!	!	!	!	!	!	!
4D\	.	8f#\L	8f#/L	.	.	.	.	.	.	.	.	.	8r	.	.	.	.	.	.	.	.	.	.
.	.	8a\	8A/	.	.	.	.	.	.	.	.	.	8a\	Ge-	.	.	.	.	.	.	.	.	.
4r	.	8f#\	8f#/	.	.	.	.	.	.	.	.	.	8dd\	-ni-	.	.	.	.	.	.	.	.	.
.	.	8a\J	8A/J	.	.	.	.	.	.	.	.	.	16dd\	-tu(m)	.	.	.	.	.	.	.	.	.
.	.	.	.	.	.	.	.	.	.	.	.	.	16dd\	n(on)	.	.	.	.	.	.	.	.	.
*	*	*Xrep	*	*	*	*	*	*	*	*	*	*	*	*	*	*	*	*	*	*	*	*	*
*	*	*Xtremolo	*Xtremolo	*	*	*	*	*	*	*	*	*	*	*	*	*	*	*	*	*	*	*	*
=24	=24	=24	=24	=24	=24	=24	=24	=24	=24	=24	=24	=24	=24	=24	=24	=24	=24	=24	=24	=24	=24	=24	=24
!	!	!	!	!	!	!	!	!	!	!	!	!	!	!	!LO:DY:a:t=for	!	!	!	!	!	!	!	!
8A\	.	8g\L	8g/L	.	1ryy	.	.	8r	.	.	.	.	8cc#\	fa-	f	.	.	.	.	.	.	.	.
8r	.	8a\	8A/	.	.	.	.	8A\	fa-	.	.	.	8a\	-ctu(m)	.	.	.	.	.	.	.	.	.
8D\	.	8f#\	8f#/	.	.	.	.	8d\	-ctum	.	.	.	8dd\	con-	.	.	.	.	.	.	.	.	.
8r	.	8a\J	8A/J	.	.	.	.	16d\	con-	.	.	.	8ff#\	-sub-	.	.	.	.	.	.	.	.	.
.	.	.	.	.	.	.	.	16d\	-sub-	.	.	.	.	.	.	.	.	.	.	.	.	.	.
8AA/	.	4A/	8c#/L	.	.	.	.	8g\	-stan-	.	.	.	8ee\	-stan-	.	.	.	.	.	.	.	.	.
8r	.	.	8e/	.	.	.	.	8e\	-ti-	.	.	.	8a\	-ti-	.	.	.	.	.	.	.	.	.
!LO:LB:g=original	!	!	!	!	!	!	!	!	!	!	!	!	!	!	!	!	!	!	!	!	!	!	!
8A\	.	4a\	8f#/	.	.	.	.	8c#\	-a-	.	.	.	8aa\	-a-	.	.	.	.	.	.	.	.	.
8r	.	.	8e/J	.	.	.	.	8e\	-le(m)	.	.	.	8gg\	-le(m)	.	.	.	.	.	.	.	.	.
!	!	!	!	!	!	!	!	!	!	!	!	!	!	!	!	!	!	!	!	!LO:LB:g=original	!	!	!
=25	=25	=25	=25	=25	=25	=25	=25	=25	=25	=25	=25	=25	=25	=25	=25	=25	=25	=25	=25	=25	=25	=25	=25
*	*	*	*tremolo	*	*	*	*	*	*	*	*	*	*	*	*	*	*	*	*	*	*	*	*
4D\	.	16d\LL	8f#L 8d/	.	1ryy	.	.	8d\	Pa-	.	.	.	8ff#\L	pa-	.	4r	.	4r	.	4r	.	4r	.
.	.	16f#\	.	.	.	.	.	.	.	.	.	.	.	.	.	.	.	.	.	.	.	.	.
.	.	16a\	8f# 8d/	.	.	.	.	8d\	-tri	.	.	.	8dd\J	-tri	.	.	.	.	.	.	.	.	.
.	.	16f#\JJ	.	.	.	.	.	.	.	.	.	.	.	.	.	.	.	.	.	.	.	.	.
*	*	*	*	*	*	*	*	*	*	*	*	*	*	*	*	*2\right	*	*	*	*	*	*	*
4r	.	4d\	8f# 8d/	.	.	.	.	2f#\	per	.	.	.	2aa\	per	.	2f#\	p	2a\	p	2ff#\	.	2aa\	.
.	.	.	8f#J 8d/	.	.	.	.	.	.	.	.	.	.	.	.	.	.	.	.	.	.	.	.
*	*	*	*Xtremolo	*	*	*	*	*	*	*	*	*	*	*	*	*	*	*	*	*	*	*	*
4d\	.	2r	4.f#/	.	.	.	.	.	.	.	.	.	.	.	.	.	.	.	.	.	.	.	.
4c#\	.	.	.	.	.	.	.	4e\	que(m)	.	.	.	4gg\	que(m)	.	4e\	.	4g\	.	4ee\	.	4gg\	.
.	.	.	8e/	.	.	.	.	.	.	.	.	.	.	.	.	.	.	.	.	.	.	.	.
=26	=26	=26	=26	=26	=26	=26	=26	=26	=26	=26	=26	=26	=26	=26	=26	=26	=26	=26	=26	=26	=26	=26	=26
4d\	.	4d\	4d/	.	1ryy	.	.	4d\	O-	.	.	.	4ff#\	O-	.	4d\	.	4f#\	.	4dd\	.	4ff#\	.
4r	.	4dd\	4d/	.	.	.	.	8d\	-mni-	.	.	.	8ff#\	-mni-	.	8d\L	.	8f#\L	.	8dd\L	.	8ff#\L	.
.	.	.	.	.	.	.	.	8d\	-a	.	.	.	8ff#\	-a	.	8d\J	.	8f#\J	.	8dd\J	.	8ff#\J	.
!	!	!	!	!	!	!	!	!LO:LB:g=original	!	!	!	!	!	!	!	!	!	!	!	!	!	!	!
4A\	.	4a\	4A/	.	.	.	.	4A\	fa-	.	.	.	4ee\	fa-	.	4A/	.	4e\	.	4a/	.	4ee\	.
4r	.	4A/	4A/	.	.	.	.	4A\	-cta	.	.	.	4ee\	-cta	.	8A/L	.	8e\L	.	8a/L	.	8ee\L	.
.	.	.	.	.	.	.	.	.	.	.	.	.	.	.	.	8A/J	.	8e\J	.	8a/J	.	8ee\J	.
!	!	!	!	!	!	!	!	!	!	!	!	!	!	!	!	!	!	!	!	!	!	!LO:LB:g=original	!
=27	=27	=27	=27	=27	=27	=27	=27	=27	=27	=27	=27	=27	=27	=27	=27	=27	=27	=27	=27	=27	=27	=27	=27
*	*	*	*tremolo	*	*	*	*	*	*	*	*	*	*	*	*	*	*	*	*	*	*	*	*
!	!	!	!	!	!	!	!	!	!	!	!	!	!	!	!	!	!	!	!	!	!LO:DY:t=fr	!	!
4D\	.	8d\L	8f#/L	.	1ryy	1r	.	4F#/	sunt	1r	.	.	4dd\	sunt	.	4F#/	.	4d\	f	4f#/	f	4dd\	f
.	.	8a\	8A/	.	.	.	.	.	.	.	.	.	.	.	.	.	.	.	.	.	.	.	.
4d\	.	8f#\	8f#/	.	.	.	.	4r	.	.	.	.	4r	.	.	4r	.	4r	.	4r	.	4r	.
.	.	8a\J	8A/J	.	.	.	.	.	.	.	.	.	.	.	.	.	.	.	.	.	.	.	.
*tremolo	*	*	*	*	*	*	*	*	*	*	*	*	*	*	*	*	*	*	*	*	*	*	*
8A\L	.	8e\L	8e/L	.	.	.	.	2r	.	.	.	.	2r	.	.	2r	.	2r	.	2r	.	2r	.
8A\	.	8a\	8A/	.	.	.	.	.	.	.	.	.	.	.	.	.	.	.	.	.	.	.	.
8A\	.	8g\	8e/	.	.	.	.	.	.	.	.	.	.	.	.	.	.	.	.	.	.	.	.
8A\J	.	8a\J	8A/J	.	.	.	.	.	.	.	.	.	.	.	.	.	.	.	.	.	.	.	.
*Xtremolo	*	*	*Xtremolo	*	*	*	*	*	*	*	*	*	*	*	*	*	*	*	*	*	*	*	*
!	!	!	!	!	!	!	!	!	!	!	!	!	!	!	!	!	!	!LO:LB:g=original	!	!	!	!	!
=28	=28	=28	=28	=28	=28	=28	=28	=28	=28	=28	=28	=28	=28	=28	=28	=28	=28	=28	=28	=28	=28	=28	=28
!	!LO:DY:t=po	!	!	!	!	!	!	!	!	!	!	!LO:DY:b:rj:t=f	!	!	!	!	!	!LO:TX:a:t=3	!	!	!	!	!
8d\L	p	8f#\L	4f# 4A/	.	1ryy	8d\	Qui	8d\	Qui	8dd\	Qui	f	8dd\	Qui	.	0r	.	0r	.	0r	.	0r	.
8D\	.	8d\	.	.	.	8D\	pro-	8D/	pro-	8d\	pro-	.	8d/	p(ro)-	.	.	.	.	.	.	.	.	.
8E\	.	8e\	8r	.	.	8E\	-pter	8E/	-pter	8e\	-pter	.	8e/	-pter	.	.	.	.	.	.	.	.	.
8F#\J	.	8f#\J	16d/LL	.	.	8F#\	nos	8F#/	nos	8f#\	nos	.	8f#/	nos	.	.	.	.	.	.	.	.	.
.	.	.	16c#/JJ	.	.	.	.	.	.	.	.	.	.	.	.	.	.	.	.	.	.	.	.
!	!	!LO:TX:t=P:problem:mixed beam	!	!	!	!	!	!	!	!	!	!	!	!	!	!	!	!	!	!	!	!	!
8G\L	.	8g\L	16e/LL	.	.	8G\	ho-	8G/	ho-	8g\	ho-	.	8g/	ho-	.	.	.	.	.	.	.	.	.
.	.	.	16d/	.	.	.	.	.	.	.	.	.	.	.	.	.	.	.	.	.	.	.	.
!	!LO:HP:t=cres	!	!	!	!	!	!	!	!	!	!	!	!	!	!	!	!	!	!	!	!	!	!
8A\	<	8A/	16f#/	.	.	8A\	-mi-	8A/	-mi-	8a\	-mi-	.	8a/	-mi-	.	.	.	.	.	.	.	.	.
.	.	.	16e/JJ	.	.	.	.	.	.	.	.	.	.	.	.	.	.	.	.	.	.	.	.
8B\	.	8B/	16g/LL	.	.	8B\	-nes	8B\	-nes	8b\	-nes	.	8b\	-nes	.	.	.	.	.	.	.	.	.
.	.	.	16f#/	.	.	.	.	.	.	.	.	.	.	.	.	.	.	.	.	.	.	.	.
8c#\J	.	8c#/J	16e/	.	.	8c#\	et	8c#\	et	8cc#\	et	.	8cc#\	et	.	.	.	.	.	.	.	.	.
.	.	.	16c#/JJ	.	.	.	.	.	.	.	.	.	.	.	.	.	.	.	.	.	.	.	.
!	!	!	!	!	!	!	!	!	!	!LO:LB:g=original	!	!	!LO:LB:g=original	!	!	!	!	!	!	!	!	!	!
=29	=29	=29	=29	=29	=29	=29	=29	=29	=29	=29	=29	=29	=29	=29	=29	=29	=29	=29	=29	=29	=29	=29	=29
8d\L	.	8d/L	4d/	.	1ryy	8d\	pro-	8d\	pro-	8dd\	pro-	.	8dd\	p(ro)-	.	.	.	.	.	.	.	.	.
8D\	.	8D/	.	.	.	8D\	-pter	8D/	-pter	8d\	-pter	.	8dd\	-pter	.	.	.	.	.	.	.	.	.
!	!LO:DY:t=for	!	!	!	!	!	!	!	!	!	!	!	!	!	!	!	!	!	!	!	!	!	!
8E\	f	8E/	8r	.	.	8E\	nos-	8E/	nos-	8e\	nos-	.	8ee\L	nos-	.	.	.	.	.	.	.	.	.
8F#\J	.	8F#/J	16d/LL	.	.	8F#\	-tra(m)	8F#/	-tra(m)	8f#\	-tra(m)	.	8ff#\J	-tram	.	.	.	.	.	.	.	.	.
.	.	.	16c#/JJ	.	.	.	.	.	.	.	.	.	.	.	.	.	.	.	.	.	.	.	.
!	!	!	!LO:LB:g=original	!	!	!	!	!	!	!	!	!	!	!	!	!	!	!	!	!	!	!	!
8G\L	.	8G/L	16e/LL	.	.	8G\	Sa-	8G/	Sa-	8g\	Sa-	.	8gg\	sa-	.	.	.	.	.	.	.	.	.
.	.	.	16d/	.	.	.	.	.	.	.	.	.	.	.	.	.	.	.	.	.	.	.	.
8A\	.	8A/	16f#/	.	.	8A\L	-lu-	8A\	.	8a\	.	.	8aa\	.	.	.	.	.	.	.	.	.	.
.	.	.	16e/JJ	.	.	.	.	.	.	.	.	.	.	.	.	.	.	.	.	.	.	.	.
8B\	.	8B/	16g/LL	.	.	8B\	.	8B\	-lu-	8b\	-lu-	.	8gg\	-lu-	.	.	.	.	.	.	.	.	.
.	.	.	16f#/	.	.	.	.	.	.	.	.	.	.	.	.	.	.	.	.	.	.	.	.
8c#\J	.	8c#/J	16g/	.	.	8c#\J	.	8c#\	.	8cc#\	.	.	8ee\	.	.	.	.	.	.	.	.	.	.
.	.	.	16e/JJ	.	.	.	.	.	.	.	.	.	.	.	.	.	.	.	.	.	.	.	.
!	!	!LO:LB:g=original	!	!	!	!LO:LB:g=original	!	!	!	!	!	!	!	!	!	!	!	!	!	!	!	!	!
=30	=30	=30	=30	=30	=30	=30	=30	=30	=30	=30	=30	=30	=30	=30	=30	=30	=30	=30	=30	=30	=30	=30	=30
8d\	.	4d\	8f#L 8d/	.	1ryy	4d\	-tem	4d\	-tem	4dd\	-tem	.	4ff#\	-tem	.	1r	.	1r	.	1r	.	1r	.
8r	.	.	8f# 8d/	.	.	.	.	.	.	.	.	.	.	.	.	.	.	.	.	.	.	.	.
(16G\LL	.	8g\L	8g 8d/	.	.	4r	.	4r	.	4r	.	.	4r	.	.	.	.	.	.	.	.	.	.
16F#\JJ)	.	.	.	.	.	.	.	.	.	.	.	.	.	.	.	.	.	.	.	.	.	.	.
8r	.	8f#\J	8f#J 8d/	.	.	.	.	.	.	.	.	.	.	.	.	.	.	.	.	.	.	.	.
*	*	*	*tremolo	*	*	*	*	*	*	*	*	*	*	*	*	*	*	*	*	*	*	*	*
4D\	.	8d\L	8gL 8d/	.	.	2r	.	2r	.	2r	.	.	2r	.	.	.	.	.	.	.	.	.	.
.	.	8a\	8g 8d/	.	.	.	.	.	.	.	.	.	.	.	.	.	.	.	.	.	.	.	.
8F#\L	.	8f#\	8g 8d/	.	.	.	.	.	.	.	.	.	.	.	.	.	.	.	.	.	.	.	.
8D\J	.	8a\J	8gJ 8d/	.	.	.	.	.	.	.	.	.	.	.	.	.	.	.	.	.	.	.	.
=31	=31	=31	=31	=31	=31	=31	=31	=31	=31	=31	=31	=31	=31	=31	=31	=31	=31	=31	=31	=31	=31	=31	=31
*	*	*	*	*	*	*	*	*	*	*	*	*	*	*	*	*tremolo	*	*tremolo	*	*tremolo	*	*tremolo	*
!	!LO:DY:t=po	!	!	!	!	!	!	!	!	!	!	!	!	!	!	!	!	!	!	!	!	!	!
8C#/L	p	8g\L	16eLL 16A/	.	1ryy	2A\	de-	2e\	de-	2cc#\	de-	.	2gg\	de-	.	8A/L	.	8e\L	.	8cc#\L	.	8gg\L	.
.	.	.	16e 16A/	.	.	.	.	.	.	.	.	.	.	.	.	.	.	.	.	.	.	.	.
8AA/J	.	8a\	16e 16A/	.	.	.	.	.	.	.	.	.	.	.	.	8A/	.	8e\	.	8cc#\	.	8gg\	.
.	.	.	16e 16A/	.	.	.	.	.	.	.	.	.	.	.	.	.	.	.	.	.	.	.	.
8AA/L	.	8e\	16e 16A/	.	.	.	.	.	.	.	.	.	.	.	.	8A/	.	8e\	.	8cc#\	.	8gg\	.
.	.	.	16e 16A/	.	.	.	.	.	.	.	.	.	.	.	.	.	.	.	.	.	.	.	.
8AA/J	.	8a\J	16e 16A/	.	.	.	.	.	.	.	.	.	.	.	.	8A/J	.	8e\J	.	8cc#\J	.	8gg\J	.
.	.	.	16eJJ 16A/	.	.	.	.	.	.	.	.	.	.	.	.	.	.	.	.	.	.	.	.
!LO:LB:g=original	!	!	!	!	!	!	!	!	!	!	!	!	!	!	!	!	!	!	!	!	!	!	!
8C#/L	.	8g\L	16eLL 16A/	.	.	4A\	-scen-	4e\	-scen-	4cc#\	-scen-	.	4gg\	-scen-	.	8A/L	.	8e\L	.	8cc#\L	.	8gg\L	.
.	.	.	16e 16A/	.	.	.	.	.	.	.	.	.	.	.	.	.	.	.	.	.	.	.	.
8E/J	.	8a\	16e 16A/	.	.	.	.	.	.	.	.	.	.	.	.	8A/	.	8e\	.	8cc#\	.	8gg\	.
.	.	.	16e 16A/	.	.	.	.	.	.	.	.	.	.	.	.	.	.	.	.	.	.	.	.
8A\L	.	8f#\	16e 16A/	.	.	8A\	-dit	8e\	-dit	8cc#\	-dit	.	8gg\	-dit	.	8A/	.	8e\	.	8cc#\	.	8gg\	.
.	.	.	16e 16A/	.	.	.	.	.	.	.	.	.	.	.	.	.	.	.	.	.	.	.	.
8c#\J	.	8a\J	16e 16A/	.	.	8A\	de	8e\	de	8cc#\	de	.	8gg\	de	.	8A/J	.	8e\J	.	8cc#\J	.	8gg\J	.
.	.	.	16eJJ 16A/	.	.	.	.	.	.	.	.	.	.	.	.	.	.	.	.	.	.	.	.
*	*	*	*Xtremolo	*	*	*	*	*	*	*	*	*	*	*	*	*Xtremolo	*	*Xtremolo	*	*Xtremolo	*	*Xtremolo	*
!	!	!	!	!	!	!	!	!LO:LB:g=original	!	!	!	!	!	!	!	!	!	!	!	!	!	!	!
=32	=32	=32	=32	=32	=32	=32	=32	=32	=32	=32	=32	=32	=32	=32	=32	=32	=32	=32	=32	=32	=32	=32	=32
*tremolo	*	*	*	*	*	*	*	*	*	*	*	*	*	*	*	*	*	*	*	*	*	*	*
8d\L	.	8f#\L	8d/L	.	1ryy	4d\	ce-	4A\	ce-	4dd\	ce-	.	4ff#\	ce-	.	4F#/	.	4d\	.	4dd\	.	4ff#\	.
8d\	.	8a\	16f#/L	.	.	.	.	.	.	.	.	.	.	.	.	.	.	.	.	.	.	.	.
.	.	.	16a/JJ	.	.	.	.	.	.	.	.	.	.	.	.	.	.	.	.	.	.	.	.
8d\	.	8d\	8dd\L	.	.	4D\	-lis	4A\	-lis	4dd\	-lis	.	4ff#\	-lis	.	4r	.	4r	.	4r	.	4r	.
8d\J	.	8a\J	16ff#\L	.	.	.	.	.	.	.	.	.	.	.	.	.	.	.	.	.	.	.	.
.	.	.	16aa\JJ	.	.	.	.	.	.	.	.	.	.	.	.	.	.	.	.	.	.	.	.
*	*	*	*tremolo	*	*	*	*	*	*	*	*	*	*	*	*	*	*	*	*	*	*	*	*
8D\L	.	8f#\L	16ddLL 16f#/	.	.	4r	.	4r	.	4r	.	.	4r	.	.	2r	.	2r	.	2r	.	2r	.
.	.	.	16dd 16f#/	.	.	.	.	.	.	.	.	.	.	.	.	.	.	.	.	.	.	.	.
8D\	.	8a\	16dd 16f#/	.	.	.	.	.	.	.	.	.	.	.	.	.	.	.	.	.	.	.	.
.	.	.	16dd 16f#/	.	.	.	.	.	.	.	.	.	.	.	.	.	.	.	.	.	.	.	.
*	*	*	*	*	*	*	*ij	*	*ij	*	*ij	*	*	*ij	*	*	*	*	*	*	*	*	*
8D\	.	8d\	16dd 16f#/	.	.	4D\	de-	4A\	de-	4dd\	de-	.	4ff#\	de-	.	.	.	.	.	.	.	.	.
.	.	.	16dd 16f#/	.	.	.	.	.	.	.	.	.	.	.	.	.	.	.	.	.	.	.	.
8D\J	.	8a\J	16dd 16f#/	.	.	.	.	.	.	.	.	.	.	.	.	.	.	.	.	.	.	.	.
.	.	.	16ddJJ 16f#/	.	.	.	.	.	.	.	.	.	.	.	.	.	.	.	.	.	.	.	.
*	*	*	*Xtremolo	*	*	*	*	*	*	*	*	*	*	*	*	*	*	*	*	*	*	*	*
=33	=33	=33	=33	=33	=33	=33	=33	=33	=33	=33	=33	=33	=33	=33	=33	=33	=33	=33	=33	=33	=33	=33	=33
!	!	!	!	!	!	!	!	!	!	!	!	!	!	!	!	!	!	!LO:TX:a:t=3	!	!	!	!	!
8G\L	.	8g\L	8bL 8g/	.	1ryy	4E\	-scen-	2g\	-scen-	2b\	-scen-	.	2ee\	-scen-	.	0r	.	0r	.	0r	.	0r	.
8G\	.	8b\	16g/L	.	.	.	.	.	.	.	.	.	.	.	.	.	.	.	.	.	.	.	.
.	.	.	16b/JJ	.	.	.	.	.	.	.	.	.	.	.	.	.	.	.	.	.	.	.	.
8G\	.	8e\	8ee\L	.	.	4G\	.	.	.	.	.	.	.	.	.	.	.	.	.	.	.	.	.
8G\J	.	8g\J	16b\L	.	.	.	.	.	.	.	.	.	.	.	.	.	.	.	.	.	.	.	.
.	.	.	16gg\JJ	.	.	.	.	.	.	.	.	.	.	.	.	.	.	.	.	.	.	.	.
8GG/L	.	8b\L	8bb\L	.	.	4G\	-dit	4g\	-dit	4b\	-dit	.	4ee\	-dit	.	.	.	.	.	.	.	.	.
8GG/	.	8g\	8ee 8b\	.	.	.	.	.	.	.	.	.	.	.	.	.	.	.	.	.	.	.	.
8GG/	.	8e\	8ee 8b\	.	.	4G\	de	4e\	de	4b\	de	.	4ee\	de	.	.	.	.	.	.	.	.	.
8GG/J	.	8g\J	8eeJ 8b\	.	.	.	.	.	.	.	.	.	.	.	.	.	.	.	.	.	.	.	.
=34	=34	=34	=34	=34	=34	=34	=34	=34	=34	=34	=34	=34	=34	=34	=34	=34	=34	=34	=34	=34	=34	=34	=34
!	!	!LO:TX:t=P:problem:mixed beam	!	!	!	!	!	!	!	!	!	!	!	!	!	!	!	!	!	!	!	!	!
8AA/L	.	8a\L	8eeL 8cc#\	.	1ryy	4A\	ce-	4e\	ce-	4cc#\	ce-	.	4ee\	ce-	.	.	.	.	.	.	.	.	.
8AA/	.	8A/	(16a\L	.	.	.	.	.	.	.	.	.	.	.	.	.	.	.	.	.	.	.	.
.	.	.	16cc#\JJ)	.	.	.	.	.	.	.	.	.	.	.	.	.	.	.	.	.	.	.	.
8AA/	.	8c#/	8ee\L	.	.	4AA/	-lis	4e\	-lis	4cc#\	-lis	.	4ee\	-lis	.	.	.	.	.	.	.	.	.
*	*	*	*	*	*	*	*Xij	*	*Xij	*	*	*	*	*Xij	*	*	*	*	*	*	*	*	*
8AA/J	.	8e/J	(16aa\L	.	.	.	.	.	.	.	.	.	.	.	.	.	.	.	.	.	.	.	.
.	.	.	16cc#\JJ)	.	.	.	.	.	.	.	.	.	.	.	.	.	.	.	.	.	.	.	.
*	*	*	*tremolo	*	*	*	*	*	*	*	*	*	*	*	*	*	*	*	*	*	*	*	*
8A\L	.	8a\L	8ggL 8a\	.	.	4r	.	4r	.	4r	.	.	4r	.	.	.	.	.	.	.	.	.	.
8A\	.	8e\	8gg 8a\	.	.	.	.	.	.	.	.	.	.	.	.	.	.	.	.	.	.	.	.
!	!	!	!	!	!	!	!	!	!	!	!	!LO:DY:b	!	!	!LO:DY:b	!	!	!	!	!	!	!	!
8A\	.	8c#\	8gg 8a\	.	.	4AA/	de-	4A\	de-	4e\	de-	f	4ee\	de-	f	.	.	.	.	.	.	.	.
!	!	!	!LO:TX:b:i:t=Vertte Cito	!	!	!	!	!	!	!	!	!	!	!	!	!	!	!	!	!	!	!	!
8A\J	.	8A\J	8ggJ 8a\	.	.	.	.	.	.	.	.	.	.	.	.	.	.	.	.	.	.	.	.
*Xtremolo	*	*	*Xtremolo	*	*	*	*	*	*	*	*	*	*	*	*	*	*	*	*	*	*	*	*
!	!	!	!LO:PB:g=original	!	!	!	!	!	!	!	!	!	!	!	!	!	!	!	!	!	!	!	!
=35	=35	=35	=35	=35	=35	=35	=35	=35	=35	=35	=35	=35	=35	=35	=35	=35	=35	=35	=35	=35	=35	=35	=35
8D\L	.	16f#\LL	8dL 8A/	.	1ryy	8D\L	-scen-	8d\	-scen-	8f#\L	-scen-	.	8dd\	-scen-	.	1r	.	1r	.	1r	.	1r	.
.	.	16d\	.	.	.	.	.	.	.	.	.	.	.	.	.	.	.	.	.	.	.	.	.
8E\	.	16g\	8e 8A/	.	.	8E\	.	8e\	.	8g\J	.	.	8ee\	.	.	.	.	.	.	.	.	.	.
.	.	16e\JJ	.	.	.	.	.	.	.	.	.	.	.	.	.	.	.	.	.	.	.	.	.
8F#\	.	16a\LL	8f# 8A/	.	.	8F#\	-dit	8f#\	-dit	8a\	-dit	.	8ff#\	-dit	.	.	.	.	.	.	.	.	.
.	.	16f#\	.	.	.	.	.	.	.	.	.	.	.	.	.	.	.	.	.	.	.	.	.
8G\J	.	16dd\	8gJ 8A/	.	.	8G\J	de	8g\	de	8b\	de	.	8gg\	de	.	.	.	.	.	.	.	.	.
.	.	16b\JJ	.	.	.	.	.	.	.	.	.	.	.	.	.	.	.	.	.	.	.	.	.
!	!	!	!	!	!	!	!	!	!	!LO:LB:g=original	!	!	!	!	!	!	!	!	!	!	!	!	!
8A\L	.	16a\LL	8f#L 8A/	.	.	8F#\L	ce-	8a\	ce-	8f#\L	ce-	.	8aa\	ce-	.	.	.	.	.	.	.	.	.
.	.	16f#\	.	.	.	.	.	.	.	.	.	.	.	.	.	.	.	.	.	.	.	.	.
8G\	.	16g\	8e 8A/	.	.	8E\	.	8g\	.	8e\	.	.	8gg\	.	.	.	.	.	.	.	.	.	.
.	.	16e\JJ	.	.	.	.	.	.	.	.	.	.	.	.	.	.	.	.	.	.	.	.	.
8F#\	.	16f#\LL	8d 8A/	.	.	8D\	.	8f#\	.	8d\	.	.	8ff#\	.	.	.	.	.	.	.	.	.	.
.	.	16d\	.	.	.	.	.	.	.	.	.	.	.	.	.	.	.	.	.	.	.	.	.
8E\J	.	16e\	8gJ 8A/	.	.	8A\J	.	8e\	.	8c#\J	.	.	8ee\	.	.	.	.	.	.	.	.	.	.
.	.	16c#\JJ	.	.	.	.	.	.	.	.	.	.	.	.	.	.	.	.	.	.	.	.	.
!	!	!LO:LB:g=original	!	!	!	!	!	!	!	!	!	!	!	!	!	!	!	!	!	!	!	!	!
=36	=36	=36	=36	=36	=36	=36	=36	=36	=36	=36	=36	=36	=36	=36	=36	=36	=36	=36	=36	=36	=36	=36	=36
!	!LO:DY:t=for	!	!	!	!	!	!	!	!	!	!	!	!	!	!	!	!	!	!	!	!	!	!
16D\LL	f	8d\L	16d/LL	.	1ryy	4D\	lis.	4d\	lis.	4d\	lis	.	4dd\	lis.	.	8F#/	.	4d\	.	4dd\	.	4ff#\	.
*	*	*	*	*	*	*	*	*	*	*	*Xij	*	*	*	*	*	*	*	*	*	*	*	*
16E\	.	.	16e/	.	.	.	.	.	.	.	.	.	.	.	.	.	.	.	.	.	.	.	.
16F#\	.	8f#\	16f#/	.	.	.	.	.	.	.	.	.	.	.	.	8F#/	.	.	.	.	.	.	.
16G\JJ	.	.	16g/JJ	.	.	.	.	.	.	.	.	.	.	.	.	.	.	.	.	.	.	.	.
16G#X\LL	.	8a\	16g#X/LL	.	.	4r	.	4r	.	4r	.	.	4r	.	.	4F#/	.	8d\	.	8r	.	8r	.
16A\	.	.	16a/	.	.	.	.	.	.	.	.	.	.	.	.	.	.	.	.	.	.	.	.
16E\	.	8f#\J	16e/	.	.	.	.	.	.	.	.	.	.	.	.	.	.	4d\	.	8f#/	.	8dd\	.
16F#\JJ	.	.	16f#/JJ	.	.	.	.	.	.	.	.	.	.	.	.	.	.	.	.	.	.	.	.
!	!	!	!	!	!	!	!	!	!	!	!	!	!	!	!	!LO:N:vis=4	!	!	!	!	!	!	!
4D\	.	4d\	4d/	.	.	2r	.	2r	.	2r	.	.	2r	.	.	2r	.	.	.	4f#/	.	4dd\	.
.	.	.	.	.	.	.	.	.	.	.	.	.	.	.	.	.	.	8r	.	.	.	.	.
4r	.	4r	4r	.	.	.	.	.	.	.	.	.	.	.	.	.	.	4r	.	4r	.	4r	.
==	==	==	==	==	==	==	==	==	==	==	==	==	==	==	==	==	==	==	==	==	==	==	==
*-	*-	*-	*-	*-	*-	*-	*-	*-	*-	*-	*-	*-	*-	*-	*-	*-	*-	*-	*-	*-	*-	*-	*-
!!!system-decoration: [(g1)][(g2)][(g3)][(g4)]<s12>
!!!RDF**kern: | = vertical stroke
!!!RDF**dynam: p = "p."
!!!RDF**dynam: pp = "pp."
!!!RDF**dynam: f = "f."
!!!AIN: 1 alto 1 bass 2 cor 2 oboe 1 organ 1 soprn 1 tenor 1 viola 2 violn
!!!ENC: Marta Opryszak
!!!END: 2021-12-23
!!!ENC: Andrzej Kubiczek
!!!END: 2021-12-29
